res/luts/Icy.CUBE
#Created by: Adobe Photoshop Export Color Lookup Plugin
TITLE "Icy"
#LUT size
LUT_3D_SIZE 5
#data domain
#LUT data points
DOMAIN_MIN 0.000000 0.000000 0.000000
DOMAIN_MAX 0.903226 0.903226 0.903226
0.000000 0.000000 0.000000
0.097748 0.000000 0.000000
0.288757 0.000000 0.000000
0.544159 0.000000 0.000000
0.852997 0.000000 0.000000
0.000000 0.205353 0.000000
0.097748 0.205353 0.000000
0.288757 0.205353 0.000000
0.544159 0.205353 0.000000
0.852997 0.205353 0.000000
0.000000 0.429260 0.000000
0.097748 0.429260 0.000000
0.288757 0.429260 0.000000
0.544159 0.429260 0.000000
0.852997 0.429260 0.000000
0.000000 0.660797 0.000000
0.097748 0.660797 0.000000
0.288757 0.660797 0.000000
0.544159 0.660797 0.000000
0.852997 0.660797 0.000000
0.000000 0.897400 0.000000
0.097748 0.897400 0.000000
0.288757 0.897400 0.000000
0.544159 0.897400 0.000000
0.852997 0.897400 0.000000
0.000000 0.000000 0.387573
0.097748 0.000000 0.387573
0.288757 0.000000 0.387573
0.544159 0.000000 0.387573
0.852997 0.000000 0.387573
0.000000 0.205353 0.387573
0.097748 0.205353 0.387573
0.288757 0.205353 0.387573
0.544159 0.205353 0.387573
0.852997 0.205353 0.387573
0.000000 0.429260 0.387573
0.097748 0.429260 0.387573
0.288757 0.429260 0.387573
0.544159 0.429260 0.387573
0.852997 0.429260 0.387573
0.000000 0.660797 0.387573
0.097748 0.660797 0.387573
0.288757 0.660797 0.387573
0.544159 0.660797 0.387573
0.852997 0.660797 0.387573
0.000000 0.897400 0.387573
0.097748 0.897400 0.387573
0.288757 0.897400 0.387573
0.544159 0.897400 0.387573
0.852997 0.897400 0.387573
0.000000 0.000000 0.602692
0.097748 0.000000 0.602692
0.288757 0.000000 0.602692
0.544159 0.000000 0.602692
0.852997 0.000000 0.602692
0.000000 0.205353 0.602692
0.097748 0.205353 0.602692
0.288757 0.205353 0.602692
0.544159 0.205353 0.602692
0.852997 0.205353 0.602692
0.000000 0.429260 0.602692
0.097748 0.429260 0.602692
0.288757 0.429260 0.602692
0.544159 0.429260 0.602692
0.852997 0.429260 0.602692
0.000000 0.660797 0.602692
0.097748 0.660797 0.602692
0.288757 0.660797 0.602692
0.544159 0.660797 0.602692
0.852997 0.660797 0.602692
0.000000 0.897400 0.602692
0.097748 0.897400 0.602692
0.288757 0.897400 0.602692
0.544159 0.897400 0.602692
0.852997 0.897400 0.602692
0.000000 0.000000 0.780334
0.097748 0.000000 0.780334
0.288757 0.000000 0.780334
0.544159 0.000000 0.780334
0.852997 0.000000 0.780334
0.000000 0.205353 0.780334
0.097748 0.205353 0.780334
0.288757 0.205353 0.780334
0.544159 0.205353 0.780334
0.852997 0.205353 0.780334
0.000000 0.429260 0.780334
0.097748 0.429260 0.780334
0.288757 0.429260 0.780334
0.544159 0.429260 0.780334
0.852997 0.429260 0.780334
0.000000 0.660797 0.780334
0.097748 0.660797 0.780334
0.288757 0.660797 0.780334
0.544159 0.660797 0.780334
0.852997 0.660797 0.780334
0.000000 0.897400 0.780334
0.097748 0.897400 0.780334
0.288757 0.897400 0.780334
0.544159 0.897400 0.780334
0.852997 0.897400 0.780334
0.000000 0.000000 0.937225
0.097748 0.000000 0.937225
0.288757 0.000000 0.937225
0.544159 0.000000 0.937225
0.852997 0.000000 0.937225
0.000000 0.205353 0.937225
0.097748 0.205353 0.937225
0.288757 0.205353 0.937225
0.544159 0.205353 0.937225
0.852997 0.205353 0.937225
0.000000 0.429260 0.937225
0.097748 0.429260 0.937225
0.288757 0.429260 0.937225
0.544159 0.429260 0.937225
0.852997 0.429260 0.937225
0.000000 0.660797 0.937225
0.097748 0.660797 0.937225
0.288757 0.660797 0.937225
0.544159 0.660797 0.937225
0.852997 0.660797 0.937225
0.000000 0.897400 0.937225
0.097748 0.897400 0.937225
0.288757 0.897400 0.937225
0.544159 0.897400 0.937225
0.852997 0.897400 0.937225
