res/luts/Icy.CUBE
#Created by: Adobe Photoshop Export Color Lookup Plugin
TITLE "Icy"
#LUT size
LUT_3D_SIZE 8
#data domain
#LUT data points
DOMAIN_MIN 0.000000 0.000000 0.000000
DOMAIN_MAX 0.903226 0.903226 0.903226
0.000000 0.000000 0.000000
0.040771 0.000000 0.000000
0.120453 0.000000 0.000000
0.226959 0.000000 0.000000
0.355804 0.000000 0.000000
0.504211 0.000000 0.000000
0.670380 0.000000 0.000000
0.852997 0.000000 0.000000
0.000000 0.113220 0.000000
0.040771 0.113220 0.000000
0.120453 0.113220 0.000000
0.226959 0.113220 0.000000
0.355804 0.113220 0.000000
0.504211 0.113220 0.000000
0.670380 0.113220 0.000000
0.852997 0.113220 0.000000
0.000000 0.236694 0.000000
0.040771 0.236694 0.000000
0.120453 0.236694 0.000000
0.226959 0.236694 0.000000
0.355804 0.236694 0.000000
0.504211 0.236694 0.000000
0.670380 0.236694 0.000000
0.852997 0.236694 0.000000
0.000000 0.364319 0.000000
0.040771 0.364319 0.000000
0.120453 0.364319 0.000000
0.226959 0.364319 0.000000
0.355804 0.364319 0.000000
0.504211 0.364319 0.000000
0.670380 0.364319 0.000000
0.852997 0.364319 0.000000
0.000000 0.494812 0.000000
0.040771 0.494812 0.000000
0.120453 0.494812 0.000000
0.226959 0.494812 0.000000
0.355804 0.494812 0.000000
0.504211 0.494812 0.000000
0.670380 0.494812 0.000000
0.852997 0.494812 0.000000
0.000000 0.627380 0.000000
0.040771 0.627380 0.000000
0.120453 0.627380 0.000000
0.226959 0.627380 0.000000
0.355804 0.627380 0.000000
0.504211 0.627380 0.000000
0.670380 0.627380 0.000000
0.852997 0.627380 0.000000
0.000000 0.761658 0.000000
0.040771 0.761658 0.000000
0.120453 0.761658 0.000000
0.226959 0.761658 0.000000
0.355804 0.761658 0.000000
0.504211 0.761658 0.000000
0.670380 0.761658 0.000000
0.852997 0.761658 0.000000
0.000000 0.897400 0.000000
0.040771 0.897400 0.000000
0.120453 0.897400 0.000000
0.226959 0.897400 0.000000
0.355804 0.897400 0.000000
0.504211 0.897400 0.000000
0.670380 0.897400 0.000000
0.852997 0.897400 0.000000
0.000000 0.000000 0.271393
0.040771 0.000000 0.271393
0.120453 0.000000 0.271393
0.226959 0.000000 0.271393
0.355804 0.000000 0.271393
0.504211 0.000000 0.271393
0.670380 0.000000 0.271393
0.852997 0.000000 0.271393
0.000000 0.113220 0.271393
0.040771 0.113220 0.271393
0.120453 0.113220 0.271393
0.226959 0.113220 0.271393
0.355804 0.113220 0.271393
0.504211 0.113220 0.271393
0.670380 0.113220 0.271393
0.852997 0.113220 0.271393
0.000000 0.236694 0.271393
0.040771 0.236694 0.271393
0.120453 0.236694 0.271393
0.226959 0.236694 0.271393
0.355804 0.236694 0.271393
0.504211 0.236694 0.271393
0.670380 0.236694 0.271393
0.852997 0.236694 0.271393
0.000000 0.364319 0.271393
0.040771 0.364319 0.271393
0.120453 0.364319 0.271393
0.226959 0.364319 0.271393
0.355804 0.364319 0.271393
0.504211 0.364319 0.271393
0.670380 0.364319 0.271393
0.852997 0.364319 0.271393
0.000000 0.494812 0.271393
0.040771 0.494812 0.271393
0.120453 0.494812 0.271393
0.226959 0.494812 0.271393
0.355804 0.494812 0.271393
0.504211 0.494812 0.271393
0.670380 0.494812 0.271393
0.852997 0.494812 0.271393
0.000000 0.627380 0.271393
0.040771 0.627380 0.271393
0.120453 0.627380 0.271393
0.226959 0.627380 0.271393
0.355804 0.627380 0.271393
0.504211 0.627380 0.271393
0.670380 0.627380 0.271393
0.852997 0.627380 0.271393
0.000000 0.761658 0.271393
0.040771 0.761658 0.271393
0.120453 0.761658 0.271393
0.226959 0.761658 0.271393
0.355804 0.761658 0.271393
0.504211 0.761658 0.271393
0.670380 0.761658 0.271393
0.852997 0.761658 0.271393
0.000000 0.897400 0.271393
0.040771 0.897400 0.271393
0.120453 0.897400 0.271393
0.226959 0.897400 0.271393
0.355804 0.897400 0.271393
0.504211 0.897400 0.271393
0.670380 0.897400 0.271393
0.852997 0.897400 0.271393
0.000000 0.000000 0.421997
0.040771 0.000000 0.421997
0.120453 0.000000 0.421997
0.226959 0.000000 0.421997
0.355804 0.000000 0.421997
0.504211 0.000000 0.421997
0.670380 0.000000 0.421997
0.852997 0.000000 0.421997
0.000000 0.113220 0.421997
0.040771 0.113220 0.421997
0.120453 0.113220 0.421997
0.226959 0.113220 0.421997
0.355804 0.113220 0.421997
0.504211 0.113220 0.421997
0.670380 0.113220 0.421997
0.852997 0.113220 0.421997
0.000000 0.236694 0.421997
0.040771 0.236694 0.421997
0.120453 0.236694 0.421997
0.226959 0.236694 0.421997
0.355804 0.236694 0.421997
0.504211 0.236694 0.421997
0.670380 0.236694 0.421997
0.852997 0.236694 0.421997
0.000000 0.364319 0.421997
0.040771 0.364319 0.421997
0.120453 0.364319 0.421997
0.226959 0.364319 0.421997
0.355804 0.364319 0.421997
0.504211 0.364319 0.421997
0.670380 0.364319 0.421997
0.852997 0.364319 0.421997
0.000000 0.494812 0.421997
0.040771 0.494812 0.421997
0.120453 0.494812 0.421997
0.226959 0.494812 0.421997
0.355804 0.494812 0.421997
0.504211 0.494812 0.421997
0.670380 0.494812 0.421997
0.852997 0.494812 0.421997
0.000000 0.627380 0.421997
0.040771 0.627380 0.421997
0.120453 0.627380 0.421997
0.226959 0.627380 0.421997
0.355804 0.627380 0.421997
0.504211 0.627380 0.421997
0.670380 0.627380 0.421997
0.852997 0.627380 0.421997
0.000000 0.761658 0.421997
0.040771 0.761658 0.421997
0.120453 0.761658 0.421997
0.226959 0.761658 0.421997
0.355804 0.761658 0.421997
0.504211 0.761658 0.421997
0.670380 0.761658 0.421997
0.852997 0.761658 0.421997
0.000000 0.897400 0.421997
0.040771 0.897400 0.421997
0.120453 0.897400 0.421997
0.226959 0.897400 0.421997
0.355804 0.897400 0.421997
0.504211 0.897400 0.421997
0.670380 0.897400 0.421997
0.852997 0.897400 0.421997
0.000000 0.000000 0.546356
0.040771 0.000000 0.546356
0.120453 0.000000 0.546356
0.226959 0.000000 0.546356
0.355804 0.000000 0.546356
0.504211 0.000000 0.546356
0.670380 0.000000 0.546356
0.852997 0.000000 0.546356
0.000000 0.113220 0.546356
0.040771 0.113220 0.546356
0.120453 0.113220 0.546356
0.226959 0.113220 0.546356
0.355804 0.113220 0.546356
0.504211 0.113220 0.546356
0.670380 0.113220 0.546356
0.852997 0.113220 0.546356
0.000000 0.236694 0.546356
0.040771 0.236694 0.546356
0.120453 0.236694 0.546356
0.226959 0.236694 0.546356
0.355804 0.236694 0.546356
0.504211 0.236694 0.546356
0.670380 0.236694 0.546356
0.852997 0.236694 0.546356
0.000000 0.364319 0.546356
0.040771 0.364319 0.546356
0.120453 0.364319 0.546356
0.226959 0.364319 0.546356
0.355804 0.364319 0.546356
0.504211 0.364319 0.546356
0.670380 0.364319 0.546356
0.852997 0.364319 0.546356
0.000000 0.494812 0.546356
0.040771 0.494812 0.546356
0.120453 0.494812 0.546356
0.226959 0.494812 0.546356
0.355804 0.494812 0.546356
0.504211 0.494812 0.546356
0.670380 0.494812 0.546356
0.852997 0.494812 0.546356
0.000000 0.627380 0.546356
0.040771 0.627380 0.546356
0.120453 0.627380 0.546356
0.226959 0.627380 0.546356
0.355804 0.627380 0.546356
0.504211 0.627380 0.546356
0.670380 0.627380 0.546356
0.852997 0.627380 0.546356
0.000000 0.761658 0.546356
0.040771 0.761658 0.546356
0.120453 0.761658 0.546356
0.226959 0.761658 0.546356
0.355804 0.761658 0.546356
0.504211 0.761658 0.546356
0.670380 0.761658 0.546356
0.852997 0.761658 0.546356
0.000000 0.897400 0.546356
0.040771 0.897400 0.546356
0.120453 0.897400 0.546356
0.226959 0.897400 0.546356
0.355804 0.897400 0.546356
0.504211 0.897400 0.546356
0.670380 0.897400 0.546356
0.852997 0.897400 0.546356
0.000000 0.000000 0.656219
0.040771 0.000000 0.656219
0.120453 0.000000 0.656219
0.226959 0.000000 0.656219
0.355804 0.000000 0.656219
0.504211 0.000000 0.656219
0.670380 0.000000 0.656219
0.852997 0.000000 0.656219
0.000000 0.113220 0.656219
0.040771 0.113220 0.656219
0.120453 0.113220 0.656219
0.226959 0.113220 0.656219
0.355804 0.113220 0.656219
0.504211 0.113220 0.656219
0.670380 0.113220 0.656219
0.852997 0.113220 0.656219
0.000000 0.236694 0.656219
0.040771 0.236694 0.656219
0.120453 0.236694 0.656219
0.226959 0.236694 0.656219
0.355804 0.236694 0.656219
0.504211 0.236694 0.656219
0.670380 0.236694 0.656219
0.852997 0.236694 0.656219
0.000000 0.364319 0.656219
0.040771 0.364319 0.656219
0.120453 0.364319 0.656219
0.226959 0.364319 0.656219
0.355804 0.364319 0.656219
0.504211 0.364319 0.656219
0.670380 0.364319 0.656219
0.852997 0.364319 0.656219
0.000000 0.494812 0.656219
0.040771 0.494812 0.656219
0.120453 0.494812 0.656219
0.226959 0.494812 0.656219
0.355804 0.494812 0.656219
0.504211 0.494812 0.656219
0.670380 0.494812 0.656219
0.852997 0.494812 0.656219
0.000000 0.627380 0.656219
0.040771 0.627380 0.656219
0.120453 0.627380 0.656219
0.226959 0.627380 0.656219
0.355804 0.627380 0.656219
0.504211 0.627380 0.656219
0.670380 0.627380 0.656219
0.852997 0.627380 0.656219
0.000000 0.761658 0.656219
0.040771 0.761658 0.656219
0.120453 0.761658 0.656219
0.226959 0.761658 0.656219
0.355804 0.761658 0.656219
0.504211 0.761658 0.656219
0.670380 0.761658 0.656219
0.852997 0.761658 0.656219
0.000000 0.897400 0.656219
0.040771 0.897400 0.656219
0.120453 0.897400 0.656219
0.226959 0.897400 0.656219
0.355804 0.897400 0.656219
0.504211 0.897400 0.656219
0.670380 0.897400 0.656219
0.852997 0.897400 0.656219
0.000000 0.000000 0.756439
0.040771 0.000000 0.756439
0.120453 0.000000 0.756439
0.226959 0.000000 0.756439
0.355804 0.000000 0.756439
0.504211 0.000000 0.756439
0.670380 0.000000 0.756439
0.852997 0.000000 0.756439
0.000000 0.113220 0.756439
0.040771 0.113220 0.756439
0.120453 0.113220 0.756439
0.226959 0.113220 0.756439
0.355804 0.113220 0.756439
0.504211 0.113220 0.756439
0.670380 0.113220 0.756439
0.852997 0.113220 0.756439
0.000000 0.236694 0.756439
0.040771 0.236694 0.756439
0.120453 0.236694 0.756439
0.226959 0.236694 0.756439
0.355804 0.236694 0.756439
0.504211 0.236694 0.756439
0.670380 0.236694 0.756439
0.852997 0.236694 0.756439
0.000000 0.364319 0.756439
0.040771 0.364319 0.756439
0.120453 0.364319 0.756439
0.226959 0.364319 0.756439
0.355804 0.364319 0.756439
0.504211 0.364319 0.756439
0.670380 0.364319 0.756439
0.852997 0.364319 0.756439
0.000000 0.494812 0.756439
0.040771 0.494812 0.756439
0.120453 0.494812 0.756439
0.226959 0.494812 0.756439
0.355804 0.494812 0.756439
0.504211 0.494812 0.756439
0.670380 0.494812 0.756439
0.852997 0.494812 0.756439
0.000000 0.627380 0.756439
0.040771 0.627380 0.756439
0.120453 0.627380 0.756439
0.226959 0.627380 0.756439
0.355804 0.627380 0.756439
0.504211 0.627380 0.756439
0.670380 0.627380 0.756439
0.852997 0.627380 0.756439
0.000000 0.761658 0.756439
0.040771 0.761658 0.756439
0.120453 0.761658 0.756439
0.226959 0.761658 0.756439
0.355804 0.761658 0.756439
0.504211 0.761658 0.756439
0.670380 0.761658 0.756439
0.852997 0.761658 0.756439
0.000000 0.897400 0.756439
0.040771 0.897400 0.756439
0.120453 0.897400 0.756439
0.226959 0.897400 0.756439
0.355804 0.897400 0.756439
0.504211 0.897400 0.756439
0.670380 0.897400 0.756439
0.852997 0.897400 0.756439
0.000000 0.000000 0.849579
0.040771 0.000000 0.849579
0.120453 0.000000 0.849579
0.226959 0.000000 0.849579
0.355804 0.000000 0.849579
0.504211 0.000000 0.849579
0.670380 0.000000 0.849579
0.852997 0.000000 0.849579
0.000000 0.113220 0.849579
0.040771 0.113220 0.849579
0.120453 0.113220 0.849579
0.226959 0.113220 0.849579
0.355804 0.113220 0.849579
0.504211 0.113220 0.849579
0.670380 0.113220 0.849579
0.852997 0.113220 0.849579
0.000000 0.236694 0.849579
0.040771 0.236694 0.849579
0.120453 0.236694 0.849579
0.226959 0.236694 0.849579
0.355804 0.236694 0.849579
0.504211 0.236694 0.849579
0.670380 0.236694 0.849579
0.852997 0.236694 0.849579
0.000000 0.364319 0.849579
0.040771 0.364319 0.849579
0.120453 0.364319 0.849579
0.226959 0.364319 0.849579
0.355804 0.364319 0.849579
0.504211 0.364319 0.849579
0.670380 0.364319 0.849579
0.852997 0.364319 0.849579
0.000000 0.494812 0.849579
0.040771 0.494812 0.849579
0.120453 0.494812 0.849579
0.226959 0.494812 0.849579
0.355804 0.494812 0.849579
0.504211 0.494812 0.849579
0.670380 0.494812 0.849579
0.852997 0.494812 0.849579
0.000000 0.627380 0.849579
0.040771 0.627380 0.849579
0.120453 0.627380 0.849579
0.226959 0.627380 0.849579
0.355804 0.627380 0.849579
0.504211 0.627380 0.849579
0.670380 0.627380 0.849579
0.852997 0.627380 0.849579
0.000000 0.761658 0.849579
0.040771 0.761658 0.849579
0.120453 0.761658 0.849579
0.226959 0.761658 0.849579
0.355804 0.761658 0.849579
0.504211 0.761658 0.849579
0.670380 0.761658 0.849579
0.852997 0.761658 0.849579
0.000000 0.897400 0.849579
0.040771 0.897400 0.849579
0.120453 0.897400 0.849579
0.226959 0.897400 0.849579
0.355804 0.897400 0.849579
0.504211 0.897400 0.849579
0.670380 0.897400 0.849579
0.852997 0.897400 0.849579
0.000000 0.000000 0.937225
0.040771 0.000000 0.937225
0.120453 0.000000 0.937225
0.226959 0.000000 0.937225
0.355804 0.000000 0.937225
0.504211 0.000000 0.937225
0.670380 0.000000 0.937225
0.852997 0.000000 0.937225
0.000000 0.113220 0.937225
0.040771 0.113220 0.937225
0.120453 0.113220 0.937225
0.226959 0.113220 0.937225
0.355804 0.113220 0.937225
0.504211 0.113220 0.937225
0.670380 0.113220 0.937225
0.852997 0.113220 0.937225
0.000000 0.236694 0.937225
0.040771 0.236694 0.937225
0.120453 0.236694 0.937225
0.226959 0.236694 0.937225
0.355804 0.236694 0.937225
0.504211 0.236694 0.937225
0.670380 0.236694 0.937225
0.852997 0.236694 0.937225
0.000000 0.364319 0.937225
0.040771 0.364319 0.937225
0.120453 0.364319 0.937225
0.226959 0.364319 0.937225
0.355804 0.364319 0.937225
0.504211 0.364319 0.937225
0.670380 0.364319 0.937225
0.852997 0.364319 0.937225
0.000000 0.494812 0.937225
0.040771 0.494812 0.937225
0.120453 0.494812 0.937225
0.226959 0.494812 0.937225
0.355804 0.494812 0.937225
0.504211 0.494812 0.937225
0.670380 0.494812 0.937225
0.852997 0.494812 0.937225
0.000000 0.627380 0.937225
0.040771 0.627380 0.937225
0.120453 0.627380 0.937225
0.226959 0.627380 0.937225
0.355804 0.627380 0.937225
0.504211 0.627380 0.937225
0.670380 0.627380 0.937225
0.852997 0.627380 0.937225
0.000000 0.761658 0.937225
0.040771 0.761658 0.937225
0.120453 0.761658 0.937225
0.226959 0.761658 0.937225
0.355804 0.761658 0.937225
0.504211 0.761658 0.937225
0.670380 0.761658 0.937225
0.852997 0.761658 0.937225
0.000000 0.897400 0.937225
0.040771 0.897400 0.937225
0.120453 0.897400 0.937225
0.226959 0.897400 0.937225
0.355804 0.897400 0.937225
0.504211 0.897400 0.937225
0.670380 0.897400 0.937225
0.852997 0.897400 0.937225
