res/luts/Icy.CUBE
#Created by: Adobe Photoshop Export Color Lookup Plugin
TITLE "Icy"
#LUT size
LUT_3D_SIZE 32
#data domain
DOMAIN_MIN 0.0 0.0 0.0
DOMAIN_MAX 1.0 1.0 1.0
#LUT data points
0.000000 0.000000 0.000000
0.004669 0.000000 0.000000
0.013824 0.000000 0.000000
0.026031 0.000000 0.000000
0.040771 0.000000 0.000000
0.057800 0.000000 0.000000
0.076843 0.000000 0.000000
0.097748 0.000000 0.000000
0.120453 0.000000 0.000000
0.144806 0.000000 0.000000
0.170715 0.000000 0.000000
0.198120 0.000000 0.000000
0.226959 0.000000 0.000000
0.257202 0.000000 0.000000
0.288757 0.000000 0.000000
0.321655 0.000000 0.000000
0.355804 0.000000 0.000000
0.391144 0.000000 0.000000
0.427673 0.000000 0.000000
0.465393 0.000000 0.000000
0.504211 0.000000 0.000000
0.544159 0.000000 0.000000
0.585205 0.000000 0.000000
0.627258 0.000000 0.000000
0.670380 0.000000 0.000000
0.714569 0.000000 0.000000
0.759705 0.000000 0.000000
0.805847 0.000000 0.000000
0.852997 0.000000 0.000000
0.901031 0.000000 0.000000
0.950073 0.000000 0.000000
1.000000 0.000000 0.000000
0.000000 0.025909 0.000000
0.004669 0.025909 0.000000
0.013824 0.025909 0.000000
0.026031 0.025909 0.000000
0.040771 0.025909 0.000000
0.057800 0.025909 0.000000
0.076843 0.025909 0.000000
0.097748 0.025909 0.000000
0.120453 0.025909 0.000000
0.144806 0.025909 0.000000
0.170715 0.025909 0.000000
0.198120 0.025909 0.000000
0.226959 0.025909 0.000000
0.257202 0.025909 0.000000
0.288757 0.025909 0.000000
0.321655 0.025909 0.000000
0.355804 0.025909 0.000000
0.391144 0.025909 0.000000
0.427673 0.025909 0.000000
0.465393 0.025909 0.000000
0.504211 0.025909 0.000000
0.544159 0.025909 0.000000
0.585205 0.025909 0.000000
0.627258 0.025909 0.000000
0.670380 0.025909 0.000000
0.714569 0.025909 0.000000
0.759705 0.025909 0.000000
0.805847 0.025909 0.000000
0.852997 0.025909 0.000000
0.901031 0.025909 0.000000
0.950073 0.025909 0.000000
1.000000 0.025909 0.000000
0.000000 0.054169 0.000000
0.004669 0.054169 0.000000
0.013824 0.054169 0.000000
0.026031 0.054169 0.000000
0.040771 0.054169 0.000000
0.057800 0.054169 0.000000
0.076843 0.054169 0.000000
0.097748 0.054169 0.000000
0.120453 0.054169 0.000000
0.144806 0.054169 0.000000
0.170715 0.054169 0.000000
0.198120 0.054169 0.000000
0.226959 0.054169 0.000000
0.257202 0.054169 0.000000
0.288757 0.054169 0.000000
0.321655 0.054169 0.000000
0.355804 0.054169 0.000000
0.391144 0.054169 0.000000
0.427673 0.054169 0.000000
0.465393 0.054169 0.000000
0.504211 0.054169 0.000000
0.544159 0.054169 0.000000
0.585205 0.054169 0.000000
0.627258 0.054169 0.000000
0.670380 0.054169 0.000000
0.714569 0.054169 0.000000
0.759705 0.054169 0.000000
0.805847 0.054169 0.000000
0.852997 0.054169 0.000000
0.901031 0.054169 0.000000
0.950073 0.054169 0.000000
1.000000 0.054169 0.000000
0.000000 0.083374 0.000000
0.004669 0.083374 0.000000
0.013824 0.083374 0.000000
0.026031 0.083374 0.000000
0.040771 0.083374 0.000000
0.057800 0.083374 0.000000
0.076843 0.083374 0.000000
0.097748 0.083374 0.000000
0.120453 0.083374 0.000000
0.144806 0.083374 0.000000
0.170715 0.083374 0.000000
0.198120 0.083374 0.000000
0.226959 0.083374 0.000000
0.257202 0.083374 0.000000
0.288757 0.083374 0.000000
0.321655 0.083374 0.000000
0.355804 0.083374 0.000000
0.391144 0.083374 0.000000
0.427673 0.083374 0.000000
0.465393 0.083374 0.000000
0.504211 0.083374 0.000000
0.544159 0.083374 0.000000
0.585205 0.083374 0.000000
0.627258 0.083374 0.000000
0.670380 0.083374 0.000000
0.714569 0.083374 0.000000
0.759705 0.083374 0.000000
0.805847 0.083374 0.000000
0.852997 0.083374 0.000000
0.901031 0.083374 0.000000
0.950073 0.083374 0.000000
1.000000 0.083374 0.000000
0.000000 0.113220 0.000000
0.004669 0.113220 0.000000
0.013824 0.113220 0.000000
0.026031 0.113220 0.000000
0.040771 0.113220 0.000000
0.057800 0.113220 0.000000
0.076843 0.113220 0.000000
0.097748 0.113220 0.000000
0.120453 0.113220 0.000000
0.144806 0.113220 0.000000
0.170715 0.113220 0.000000
0.198120 0.113220 0.000000
0.226959 0.113220 0.000000
0.257202 0.113220 0.000000
0.288757 0.113220 0.000000
0.321655 0.113220 0.000000
0.355804 0.113220 0.000000
0.391144 0.113220 0.000000
0.427673 0.113220 0.000000
0.465393 0.113220 0.000000
0.504211 0.113220 0.000000
0.544159 0.113220 0.000000
0.585205 0.113220 0.000000
0.627258 0.113220 0.000000
0.670380 0.113220 0.000000
0.714569 0.113220 0.000000
0.759705 0.113220 0.000000
0.805847 0.113220 0.000000
0.852997 0.113220 0.000000
0.901031 0.113220 0.000000
0.950073 0.113220 0.000000
1.000000 0.113220 0.000000
0.000000 0.143555 0.000000
0.004669 0.143555 0.000000
0.013824 0.143555 0.000000
0.026031 0.143555 0.000000
0.040771 0.143555 0.000000
0.057800 0.143555 0.000000
0.076843 0.143555 0.000000
0.097748 0.143555 0.000000
0.120453 0.143555 0.000000
0.144806 0.143555 0.000000
0.170715 0.143555 0.000000
0.198120 0.143555 0.000000
0.226959 0.143555 0.000000
0.257202 0.143555 0.000000
0.288757 0.143555 0.000000
0.321655 0.143555 0.000000
0.355804 0.143555 0.000000
0.391144 0.143555 0.000000
0.427673 0.143555 0.000000
0.465393 0.143555 0.000000
0.504211 0.143555 0.000000
0.544159 0.143555 0.000000
0.585205 0.143555 0.000000
0.627258 0.143555 0.000000
0.670380 0.143555 0.000000
0.714569 0.143555 0.000000
0.759705 0.143555 0.000000
0.805847 0.143555 0.000000
0.852997 0.143555 0.000000
0.901031 0.143555 0.000000
0.950073 0.143555 0.000000
1.000000 0.143555 0.000000
0.000000 0.174286 0.000000
0.004669 0.174286 0.000000
0.013824 0.174286 0.000000
0.026031 0.174286 0.000000
0.040771 0.174286 0.000000
0.057800 0.174286 0.000000
0.076843 0.174286 0.000000
0.097748 0.174286 0.000000
0.120453 0.174286 0.000000
0.144806 0.174286 0.000000
0.170715 0.174286 0.000000
0.198120 0.174286 0.000000
0.226959 0.174286 0.000000
0.257202 0.174286 0.000000
0.288757 0.174286 0.000000
0.321655 0.174286 0.000000
0.355804 0.174286 0.000000
0.391144 0.174286 0.000000
0.427673 0.174286 0.000000
0.465393 0.174286 0.000000
0.504211 0.174286 0.000000
0.544159 0.174286 0.000000
0.585205 0.174286 0.000000
0.627258 0.174286 0.000000
0.670380 0.174286 0.000000
0.714569 0.174286 0.000000
0.759705 0.174286 0.000000
0.805847 0.174286 0.000000
0.852997 0.174286 0.000000
0.901031 0.174286 0.000000
0.950073 0.174286 0.000000
1.000000 0.174286 0.000000
0.000000 0.205353 0.000000
0.004669 0.205353 0.000000
0.013824 0.205353 0.000000
0.026031 0.205353 0.000000
0.040771 0.205353 0.000000
0.057800 0.205353 0.000000
0.076843 0.205353 0.000000
0.097748 0.205353 0.000000
0.120453 0.205353 0.000000
0.144806 0.205353 0.000000
0.170715 0.205353 0.000000
0.198120 0.205353 0.000000
0.226959 0.205353 0.000000
0.257202 0.205353 0.000000
0.288757 0.205353 0.000000
0.321655 0.205353 0.000000
0.355804 0.205353 0.000000
0.391144 0.205353 0.000000
0.427673 0.205353 0.000000
0.465393 0.205353 0.000000
0.504211 0.205353 0.000000
0.544159 0.205353 0.000000
0.585205 0.205353 0.000000
0.627258 0.205353 0.000000
0.670380 0.205353 0.000000
0.714569 0.205353 0.000000
0.759705 0.205353 0.000000
0.805847 0.205353 0.000000
0.852997 0.205353 0.000000
0.901031 0.205353 0.000000
0.950073 0.205353 0.000000
1.000000 0.205353 0.000000
0.000000 0.236694 0.000000
0.004669 0.236694 0.000000
0.013824 0.236694 0.000000
0.026031 0.236694 0.000000
0.040771 0.236694 0.000000
0.057800 0.236694 0.000000
0.076843 0.236694 0.000000
0.097748 0.236694 0.000000
0.120453 0.236694 0.000000
0.144806 0.236694 0.000000
0.170715 0.236694 0.000000
0.198120 0.236694 0.000000
0.226959 0.236694 0.000000
0.257202 0.236694 0.000000
0.288757 0.236694 0.000000
0.321655 0.236694 0.000000
0.355804 0.236694 0.000000
0.391144 0.236694 0.000000
0.427673 0.236694 0.000000
0.465393 0.236694 0.000000
0.504211 0.236694 0.000000
0.544159 0.236694 0.000000
0.585205 0.236694 0.000000
0.627258 0.236694 0.000000
0.670380 0.236694 0.000000
0.714569 0.236694 0.000000
0.759705 0.236694 0.000000
0.805847 0.236694 0.000000
0.852997 0.236694 0.000000
0.901031 0.236694 0.000000
0.950073 0.236694 0.000000
1.000000 0.236694 0.000000
0.000000 0.268280 0.000000
0.004669 0.268280 0.000000
0.013824 0.268280 0.000000
0.026031 0.268280 0.000000
0.040771 0.268280 0.000000
0.057800 0.268280 0.000000
0.076843 0.268280 0.000000
0.097748 0.268280 0.000000
0.120453 0.268280 0.000000
0.144806 0.268280 0.000000
0.170715 0.268280 0.000000
0.198120 0.268280 0.000000
0.226959 0.268280 0.000000
0.257202 0.268280 0.000000
0.288757 0.268280 0.000000
0.321655 0.268280 0.000000
0.355804 0.268280 0.000000
0.391144 0.268280 0.000000
0.427673 0.268280 0.000000
0.465393 0.268280 0.000000
0.504211 0.268280 0.000000
0.544159 0.268280 0.000000
0.585205 0.268280 0.000000
0.627258 0.268280 0.000000
0.670380 0.268280 0.000000
0.714569 0.268280 0.000000
0.759705 0.268280 0.000000
0.805847 0.268280 0.000000
0.852997 0.268280 0.000000
0.901031 0.268280 0.000000
0.950073 0.268280 0.000000
1.000000 0.268280 0.000000
0.000000 0.300110 0.000000
0.004669 0.300110 0.000000
0.013824 0.300110 0.000000
0.026031 0.300110 0.000000
0.040771 0.300110 0.000000
0.057800 0.300110 0.000000
0.076843 0.300110 0.000000
0.097748 0.300110 0.000000
0.120453 0.300110 0.000000
0.144806 0.300110 0.000000
0.170715 0.300110 0.000000
0.198120 0.300110 0.000000
0.226959 0.300110 0.000000
0.257202 0.300110 0.000000
0.288757 0.300110 0.000000
0.321655 0.300110 0.000000
0.355804 0.300110 0.000000
0.391144 0.300110 0.000000
0.427673 0.300110 0.000000
0.465393 0.300110 0.000000
0.504211 0.300110 0.000000
0.544159 0.300110 0.000000
0.585205 0.300110 0.000000
0.627258 0.300110 0.000000
0.670380 0.300110 0.000000
0.714569 0.300110 0.000000
0.759705 0.300110 0.000000
0.805847 0.300110 0.000000
0.852997 0.300110 0.000000
0.901031 0.300110 0.000000
0.950073 0.300110 0.000000
1.000000 0.300110 0.000000
0.000000 0.332123 0.000000
0.004669 0.332123 0.000000
0.013824 0.332123 0.000000
0.026031 0.332123 0.000000
0.040771 0.332123 0.000000
0.057800 0.332123 0.000000
0.076843 0.332123 0.000000
0.097748 0.332123 0.000000
0.120453 0.332123 0.000000
0.144806 0.332123 0.000000
0.170715 0.332123 0.000000
0.198120 0.332123 0.000000
0.226959 0.332123 0.000000
0.257202 0.332123 0.000000
0.288757 0.332123 0.000000
0.321655 0.332123 0.000000
0.355804 0.332123 0.000000
0.391144 0.332123 0.000000
0.427673 0.332123 0.000000
0.465393 0.332123 0.000000
0.504211 0.332123 0.000000
0.544159 0.332123 0.000000
0.585205 0.332123 0.000000
0.627258 0.332123 0.000000
0.670380 0.332123 0.000000
0.714569 0.332123 0.000000
0.759705 0.332123 0.000000
0.805847 0.332123 0.000000
0.852997 0.332123 0.000000
0.901031 0.332123 0.000000
0.950073 0.332123 0.000000
1.000000 0.332123 0.000000
0.000000 0.364319 0.000000
0.004669 0.364319 0.000000
0.013824 0.364319 0.000000
0.026031 0.364319 0.000000
0.040771 0.364319 0.000000
0.057800 0.364319 0.000000
0.076843 0.364319 0.000000
0.097748 0.364319 0.000000
0.120453 0.364319 0.000000
0.144806 0.364319 0.000000
0.170715 0.364319 0.000000
0.198120 0.364319 0.000000
0.226959 0.364319 0.000000
0.257202 0.364319 0.000000
0.288757 0.364319 0.000000
0.321655 0.364319 0.000000
0.355804 0.364319 0.000000
0.391144 0.364319 0.000000
0.427673 0.364319 0.000000
0.465393 0.364319 0.000000
0.504211 0.364319 0.000000
0.544159 0.364319 0.000000
0.585205 0.364319 0.000000
0.627258 0.364319 0.000000
0.670380 0.364319 0.000000
0.714569 0.364319 0.000000
0.759705 0.364319 0.000000
0.805847 0.364319 0.000000
0.852997 0.364319 0.000000
0.901031 0.364319 0.000000
0.950073 0.364319 0.000000
1.000000 0.364319 0.000000
0.000000 0.396729 0.000000
0.004669 0.396729 0.000000
0.013824 0.396729 0.000000
0.026031 0.396729 0.000000
0.040771 0.396729 0.000000
0.057800 0.396729 0.000000
0.076843 0.396729 0.000000
0.097748 0.396729 0.000000
0.120453 0.396729 0.000000
0.144806 0.396729 0.000000
0.170715 0.396729 0.000000
0.198120 0.396729 0.000000
0.226959 0.396729 0.000000
0.257202 0.396729 0.000000
0.288757 0.396729 0.000000
0.321655 0.396729 0.000000
0.355804 0.396729 0.000000
0.391144 0.396729 0.000000
0.427673 0.396729 0.000000
0.465393 0.396729 0.000000
0.504211 0.396729 0.000000
0.544159 0.396729 0.000000
0.585205 0.396729 0.000000
0.627258 0.396729 0.000000
0.670380 0.396729 0.000000
0.714569 0.396729 0.000000
0.759705 0.396729 0.000000
0.805847 0.396729 0.000000
0.852997 0.396729 0.000000
0.901031 0.396729 0.000000
0.950073 0.396729 0.000000
1.000000 0.396729 0.000000
0.000000 0.429260 0.000000
0.004669 0.429260 0.000000
0.013824 0.429260 0.000000
0.026031 0.429260 0.000000
0.040771 0.429260 0.000000
0.057800 0.429260 0.000000
0.076843 0.429260 0.000000
0.097748 0.429260 0.000000
0.120453 0.429260 0.000000
0.144806 0.429260 0.000000
0.170715 0.429260 0.000000
0.198120 0.429260 0.000000
0.226959 0.429260 0.000000
0.257202 0.429260 0.000000
0.288757 0.429260 0.000000
0.321655 0.429260 0.000000
0.355804 0.429260 0.000000
0.391144 0.429260 0.000000
0.427673 0.429260 0.000000
0.465393 0.429260 0.000000
0.504211 0.429260 0.000000
0.544159 0.429260 0.000000
0.585205 0.429260 0.000000
0.627258 0.429260 0.000000
0.670380 0.429260 0.000000
0.714569 0.429260 0.000000
0.759705 0.429260 0.000000
0.805847 0.429260 0.000000
0.852997 0.429260 0.000000
0.901031 0.429260 0.000000
0.950073 0.429260 0.000000
1.000000 0.429260 0.000000
0.000000 0.461945 0.000000
0.004669 0.461945 0.000000
0.013824 0.461945 0.000000
0.026031 0.461945 0.000000
0.040771 0.461945 0.000000
0.057800 0.461945 0.000000
0.076843 0.461945 0.000000
0.097748 0.461945 0.000000
0.120453 0.461945 0.000000
0.144806 0.461945 0.000000
0.170715 0.461945 0.000000
0.198120 0.461945 0.000000
0.226959 0.461945 0.000000
0.257202 0.461945 0.000000
0.288757 0.461945 0.000000
0.321655 0.461945 0.000000
0.355804 0.461945 0.000000
0.391144 0.461945 0.000000
0.427673 0.461945 0.000000
0.465393 0.461945 0.000000
0.504211 0.461945 0.000000
0.544159 0.461945 0.000000
0.585205 0.461945 0.000000
0.627258 0.461945 0.000000
0.670380 0.461945 0.000000
0.714569 0.461945 0.000000
0.759705 0.461945 0.000000
0.805847 0.461945 0.000000
0.852997 0.461945 0.000000
0.901031 0.461945 0.000000
0.950073 0.461945 0.000000
1.000000 0.461945 0.000000
0.000000 0.494812 0.000000
0.004669 0.494812 0.000000
0.013824 0.494812 0.000000
0.026031 0.494812 0.000000
0.040771 0.494812 0.000000
0.057800 0.494812 0.000000
0.076843 0.494812 0.000000
0.097748 0.494812 0.000000
0.120453 0.494812 0.000000
0.144806 0.494812 0.000000
0.170715 0.494812 0.000000
0.198120 0.494812 0.000000
0.226959 0.494812 0.000000
0.257202 0.494812 0.000000
0.288757 0.494812 0.000000
0.321655 0.494812 0.000000
0.355804 0.494812 0.000000
0.391144 0.494812 0.000000
0.427673 0.494812 0.000000
0.465393 0.494812 0.000000
0.504211 0.494812 0.000000
0.544159 0.494812 0.000000
0.585205 0.494812 0.000000
0.627258 0.494812 0.000000
0.670380 0.494812 0.000000
0.714569 0.494812 0.000000
0.759705 0.494812 0.000000
0.805847 0.494812 0.000000
0.852997 0.494812 0.000000
0.901031 0.494812 0.000000
0.950073 0.494812 0.000000
1.000000 0.494812 0.000000
0.000000 0.527771 0.000000
0.004669 0.527771 0.000000
0.013824 0.527771 0.000000
0.026031 0.527771 0.000000
0.040771 0.527771 0.000000
0.057800 0.527771 0.000000
0.076843 0.527771 0.000000
0.097748 0.527771 0.000000
0.120453 0.527771 0.000000
0.144806 0.527771 0.000000
0.170715 0.527771 0.000000
0.198120 0.527771 0.000000
0.226959 0.527771 0.000000
0.257202 0.527771 0.000000
0.288757 0.527771 0.000000
0.321655 0.527771 0.000000
0.355804 0.527771 0.000000
0.391144 0.527771 0.000000
0.427673 0.527771 0.000000
0.465393 0.527771 0.000000
0.504211 0.527771 0.000000
0.544159 0.527771 0.000000
0.585205 0.527771 0.000000
0.627258 0.527771 0.000000
0.670380 0.527771 0.000000
0.714569 0.527771 0.000000
0.759705 0.527771 0.000000
0.805847 0.527771 0.000000
0.852997 0.527771 0.000000
0.901031 0.527771 0.000000
0.950073 0.527771 0.000000
1.000000 0.527771 0.000000
0.000000 0.560852 0.000000
0.004669 0.560852 0.000000
0.013824 0.560852 0.000000
0.026031 0.560852 0.000000
0.040771 0.560852 0.000000
0.057800 0.560852 0.000000
0.076843 0.560852 0.000000
0.097748 0.560852 0.000000
0.120453 0.560852 0.000000
0.144806 0.560852 0.000000
0.170715 0.560852 0.000000
0.198120 0.560852 0.000000
0.226959 0.560852 0.000000
0.257202 0.560852 0.000000
0.288757 0.560852 0.000000
0.321655 0.560852 0.000000
0.355804 0.560852 0.000000
0.391144 0.560852 0.000000
0.427673 0.560852 0.000000
0.465393 0.560852 0.000000
0.504211 0.560852 0.000000
0.544159 0.560852 0.000000
0.585205 0.560852 0.000000
0.627258 0.560852 0.000000
0.670380 0.560852 0.000000
0.714569 0.560852 0.000000
0.759705 0.560852 0.000000
0.805847 0.560852 0.000000
0.852997 0.560852 0.000000
0.901031 0.560852 0.000000
0.950073 0.560852 0.000000
1.000000 0.560852 0.000000
0.000000 0.594055 0.000000
0.004669 0.594055 0.000000
0.013824 0.594055 0.000000
0.026031 0.594055 0.000000
0.040771 0.594055 0.000000
0.057800 0.594055 0.000000
0.076843 0.594055 0.000000
0.097748 0.594055 0.000000
0.120453 0.594055 0.000000
0.144806 0.594055 0.000000
0.170715 0.594055 0.000000
0.198120 0.594055 0.000000
0.226959 0.594055 0.000000
0.257202 0.594055 0.000000
0.288757 0.594055 0.000000
0.321655 0.594055 0.000000
0.355804 0.594055 0.000000
0.391144 0.594055 0.000000
0.427673 0.594055 0.000000
0.465393 0.594055 0.000000
0.504211 0.594055 0.000000
0.544159 0.594055 0.000000
0.585205 0.594055 0.000000
0.627258 0.594055 0.000000
0.670380 0.594055 0.000000
0.714569 0.594055 0.000000
0.759705 0.594055 0.000000
0.805847 0.594055 0.000000
0.852997 0.594055 0.000000
0.901031 0.594055 0.000000
0.950073 0.594055 0.000000
1.000000 0.594055 0.000000
0.000000 0.627380 0.000000
0.004669 0.627380 0.000000
0.013824 0.627380 0.000000
0.026031 0.627380 0.000000
0.040771 0.627380 0.000000
0.057800 0.627380 0.000000
0.076843 0.627380 0.000000
0.097748 0.627380 0.000000
0.120453 0.627380 0.000000
0.144806 0.627380 0.000000
0.170715 0.627380 0.000000
0.198120 0.627380 0.000000
0.226959 0.627380 0.000000
0.257202 0.627380 0.000000
0.288757 0.627380 0.000000
0.321655 0.627380 0.000000
0.355804 0.627380 0.000000
0.391144 0.627380 0.000000
0.427673 0.627380 0.000000
0.465393 0.627380 0.000000
0.504211 0.627380 0.000000
0.544159 0.627380 0.000000
0.585205 0.627380 0.000000
0.627258 0.627380 0.000000
0.670380 0.627380 0.000000
0.714569 0.627380 0.000000
0.759705 0.627380 0.000000
0.805847 0.627380 0.000000
0.852997 0.627380 0.000000
0.901031 0.627380 0.000000
0.950073 0.627380 0.000000
1.000000 0.627380 0.000000
0.000000 0.660797 0.000000
0.004669 0.660797 0.000000
0.013824 0.660797 0.000000
0.026031 0.660797 0.000000
0.040771 0.660797 0.000000
0.057800 0.660797 0.000000
0.076843 0.660797 0.000000
0.097748 0.660797 0.000000
0.120453 0.660797 0.000000
0.144806 0.660797 0.000000
0.170715 0.660797 0.000000
0.198120 0.660797 0.000000
0.226959 0.660797 0.000000
0.257202 0.660797 0.000000
0.288757 0.660797 0.000000
0.321655 0.660797 0.000000
0.355804 0.660797 0.000000
0.391144 0.660797 0.000000
0.427673 0.660797 0.000000
0.465393 0.660797 0.000000
0.504211 0.660797 0.000000
0.544159 0.660797 0.000000
0.585205 0.660797 0.000000
0.627258 0.660797 0.000000
0.670380 0.660797 0.000000
0.714569 0.660797 0.000000
0.759705 0.660797 0.000000
0.805847 0.660797 0.000000
0.852997 0.660797 0.000000
0.901031 0.660797 0.000000
0.950073 0.660797 0.000000
1.000000 0.660797 0.000000
0.000000 0.694336 0.000000
0.004669 0.694336 0.000000
0.013824 0.694336 0.000000
0.026031 0.694336 0.000000
0.040771 0.694336 0.000000
0.057800 0.694336 0.000000
0.076843 0.694336 0.000000
0.097748 0.694336 0.000000
0.120453 0.694336 0.000000
0.144806 0.694336 0.000000
0.170715 0.694336 0.000000
0.198120 0.694336 0.000000
0.226959 0.694336 0.000000
0.257202 0.694336 0.000000
0.288757 0.694336 0.000000
0.321655 0.694336 0.000000
0.355804 0.694336 0.000000
0.391144 0.694336 0.000000
0.427673 0.694336 0.000000
0.465393 0.694336 0.000000
0.504211 0.694336 0.000000
0.544159 0.694336 0.000000
0.585205 0.694336 0.000000
0.627258 0.694336 0.000000
0.670380 0.694336 0.000000
0.714569 0.694336 0.000000
0.759705 0.694336 0.000000
0.805847 0.694336 0.000000
0.852997 0.694336 0.000000
0.901031 0.694336 0.000000
0.950073 0.694336 0.000000
1.000000 0.694336 0.000000
0.000000 0.727936 0.000000
0.004669 0.727936 0.000000
0.013824 0.727936 0.000000
0.026031 0.727936 0.000000
0.040771 0.727936 0.000000
0.057800 0.727936 0.000000
0.076843 0.727936 0.000000
0.097748 0.727936 0.000000
0.120453 0.727936 0.000000
0.144806 0.727936 0.000000
0.170715 0.727936 0.000000
0.198120 0.727936 0.000000
0.226959 0.727936 0.000000
0.257202 0.727936 0.000000
0.288757 0.727936 0.000000
0.321655 0.727936 0.000000
0.355804 0.727936 0.000000
0.391144 0.727936 0.000000
0.427673 0.727936 0.000000
0.465393 0.727936 0.000000
0.504211 0.727936 0.000000
0.544159 0.727936 0.000000
0.585205 0.727936 0.000000
0.627258 0.727936 0.000000
0.670380 0.727936 0.000000
0.714569 0.727936 0.000000
0.759705 0.727936 0.000000
0.805847 0.727936 0.000000
0.852997 0.727936 0.000000
0.901031 0.727936 0.000000
0.950073 0.727936 0.000000
1.000000 0.727936 0.000000
0.000000 0.761658 0.000000
0.004669 0.761658 0.000000
0.013824 0.761658 0.000000
0.026031 0.761658 0.000000
0.040771 0.761658 0.000000
0.057800 0.761658 0.000000
0.076843 0.761658 0.000000
0.097748 0.761658 0.000000
0.120453 0.761658 0.000000
0.144806 0.761658 0.000000
0.170715 0.761658 0.000000
0.198120 0.761658 0.000000
0.226959 0.761658 0.000000
0.257202 0.761658 0.000000
0.288757 0.761658 0.000000
0.321655 0.761658 0.000000
0.355804 0.761658 0.000000
0.391144 0.761658 0.000000
0.427673 0.761658 0.000000
0.465393 0.761658 0.000000
0.504211 0.761658 0.000000
0.544159 0.761658 0.000000
0.585205 0.761658 0.000000
0.627258 0.761658 0.000000
0.670380 0.761658 0.000000
0.714569 0.761658 0.000000
0.759705 0.761658 0.000000
0.805847 0.761658 0.000000
0.852997 0.761658 0.000000
0.901031 0.761658 0.000000
0.950073 0.761658 0.000000
1.000000 0.761658 0.000000
0.000000 0.795471 0.000000
0.004669 0.795471 0.000000
0.013824 0.795471 0.000000
0.026031 0.795471 0.000000
0.040771 0.795471 0.000000
0.057800 0.795471 0.000000
0.076843 0.795471 0.000000
0.097748 0.795471 0.000000
0.120453 0.795471 0.000000
0.144806 0.795471 0.000000
0.170715 0.795471 0.000000
0.198120 0.795471 0.000000
0.226959 0.795471 0.000000
0.257202 0.795471 0.000000
0.288757 0.795471 0.000000
0.321655 0.795471 0.000000
0.355804 0.795471 0.000000
0.391144 0.795471 0.000000
0.427673 0.795471 0.000000
0.465393 0.795471 0.000000
0.504211 0.795471 0.000000
0.544159 0.795471 0.000000
0.585205 0.795471 0.000000
0.627258 0.795471 0.000000
0.670380 0.795471 0.000000
0.714569 0.795471 0.000000
0.759705 0.795471 0.000000
0.805847 0.795471 0.000000
0.852997 0.795471 0.000000
0.901031 0.795471 0.000000
0.950073 0.795471 0.000000
1.000000 0.795471 0.000000
0.000000 0.829346 0.000000
0.004669 0.829346 0.000000
0.013824 0.829346 0.000000
0.026031 0.829346 0.000000
0.040771 0.829346 0.000000
0.057800 0.829346 0.000000
0.076843 0.829346 0.000000
0.097748 0.829346 0.000000
0.120453 0.829346 0.000000
0.144806 0.829346 0.000000
0.170715 0.829346 0.000000
0.198120 0.829346 0.000000
0.226959 0.829346 0.000000
0.257202 0.829346 0.000000
0.288757 0.829346 0.000000
0.321655 0.829346 0.000000
0.355804 0.829346 0.000000
0.391144 0.829346 0.000000
0.427673 0.829346 0.000000
0.465393 0.829346 0.000000
0.504211 0.829346 0.000000
0.544159 0.829346 0.000000
0.585205 0.829346 0.000000
0.627258 0.829346 0.000000
0.670380 0.829346 0.000000
0.714569 0.829346 0.000000
0.759705 0.829346 0.000000
0.805847 0.829346 0.000000
0.852997 0.829346 0.000000
0.901031 0.829346 0.000000
0.950073 0.829346 0.000000
1.000000 0.829346 0.000000
0.000000 0.863342 0.000000
0.004669 0.863342 0.000000
0.013824 0.863342 0.000000
0.026031 0.863342 0.000000
0.040771 0.863342 0.000000
0.057800 0.863342 0.000000
0.076843 0.863342 0.000000
0.097748 0.863342 0.000000
0.120453 0.863342 0.000000
0.144806 0.863342 0.000000
0.170715 0.863342 0.000000
0.198120 0.863342 0.000000
0.226959 0.863342 0.000000
0.257202 0.863342 0.000000
0.288757 0.863342 0.000000
0.321655 0.863342 0.000000
0.355804 0.863342 0.000000
0.391144 0.863342 0.000000
