res/luts/Sweet.CUBE
#Created by: Adobe Photoshop Export Color Lookup Plugin
TITLE "Sweet"
#LUT size
LUT_3D_SIZE 5
#data domain
#LUT data points
DOMAIN_MIN 0.000000 0.000000 0.000000
DOMAIN_MAX 0.903226 0.903226 0.903226
0.000000 0.000000 0.000000
0.420990 0.000000 0.000000
0.629913 0.000000 0.000000
0.797394 0.000000 0.000000
0.942535 0.000000 0.000000
0.000000 0.076874 0.000000
0.420990 0.076874 0.000000
0.629913 0.076874 0.000000
0.797394 0.076874 0.000000
0.942535 0.076874 0.000000
0.000000 0.253937 0.000000
0.420990 0.253937 0.000000
0.629913 0.253937 0.000000
0.797394 0.253937 0.000000
0.942535 0.253937 0.000000
0.000000 0.510956 0.000000
0.420990 0.510956 0.000000
0.629913 0.510956 0.000000
0.797394 0.510956 0.000000
0.942535 0.510956 0.000000
0.000000 0.839050 0.000000
0.420990 0.839050 0.000000
0.629913 0.839050 0.000000
0.797394 0.839050 0.000000
0.942535 0.839050 0.000000
0.000000 0.000000 0.389923
0.420990 0.000000 0.389923
0.629913 0.000000 0.389923
0.797394 0.000000 0.389923
0.942535 0.000000 0.389923
0.000000 0.076874 0.389923
0.420990 0.076874 0.389923
0.629913 0.076874 0.389923
0.797394 0.076874 0.389923
0.942535 0.076874 0.389923
0.000000 0.253937 0.389923
0.420990 0.253937 0.389923
0.629913 0.253937 0.389923
0.797394 0.253937 0.389923
0.942535 0.253937 0.389923
0.000000 0.510956 0.389923
0.420990 0.510956 0.389923
0.629913 0.510956 0.389923
0.797394 0.510956 0.389923
0.942535 0.510956 0.389923
0.000000 0.839050 0.389923
0.420990 0.839050 0.389923
0.629913 0.839050 0.389923
0.797394 0.839050 0.389923
0.942535 0.839050 0.389923
0.000000 0.000000 0.604614
0.420990 0.000000 0.604614
0.629913 0.000000 0.604614
0.797394 0.000000 0.604614
0.942535 0.000000 0.604614
0.000000 0.076874 0.604614
0.420990 0.076874 0.604614
0.629913 0.076874 0.604614
0.797394 0.076874 0.604614
0.942535 0.076874 0.604614
0.000000 0.253937 0.604614
0.420990 0.253937 0.604614
0.629913 0.253937 0.604614
0.797394 0.253937 0.604614
0.942535 0.253937 0.604614
0.000000 0.510956 0.604614
0.420990 0.510956 0.604614
0.629913 0.510956 0.604614
0.797394 0.510956 0.604614
0.942535 0.510956 0.604614
0.000000 0.839050 0.604614
0.420990 0.839050 0.604614
0.629913 0.839050 0.604614
0.797394 0.839050 0.604614
0.942535 0.839050 0.604614
0.000000 0.000000 0.781555
0.420990 0.000000 0.781555
0.629913 0.000000 0.781555
0.797394 0.000000 0.781555
0.942535 0.000000 0.781555
0.000000 0.076874 0.781555
0.420990 0.076874 0.781555
0.629913 0.076874 0.781555
0.797394 0.076874 0.781555
0.942535 0.076874 0.781555
0.000000 0.253937 0.781555
0.420990 0.253937 0.781555
0.629913 0.253937 0.781555
0.797394 0.253937 0.781555
0.942535 0.253937 0.781555
0.000000 0.510956 0.781555
0.420990 0.510956 0.781555
0.629913 0.510956 0.781555
0.797394 0.510956 0.781555
0.942535 0.510956 0.781555
0.000000 0.839050 0.781555
0.420990 0.839050 0.781555
0.629913 0.839050 0.781555
0.797394 0.839050 0.781555
0.942535 0.839050 0.781555
0.000000 0.000000 0.937622
0.420990 0.000000 0.937622
0.629913 0.000000 0.937622
0.797394 0.000000 0.937622
0.942535 0.000000 0.937622
0.000000 0.076874 0.937622
0.420990 0.076874 0.937622
0.629913 0.076874 0.937622
0.797394 0.076874 0.937622
0.942535 0.076874 0.937622
0.000000 0.253937 0.937622
0.420990 0.253937 0.937622
0.629913 0.253937 0.937622
0.797394 0.253937 0.937622
0.942535 0.253937 0.937622
0.000000 0.510956 0.937622
0.420990 0.510956 0.937622
0.629913 0.510956 0.937622
0.797394 0.510956 0.937622
0.942535 0.510956 0.937622
0.000000 0.839050 0.937622
0.420990 0.839050 0.937622
0.629913 0.839050 0.937622
0.797394 0.839050 0.937622
0.942535 0.839050 0.937622
