res/luts/Sweet.CUBE
#Created by: Adobe Photoshop Export Color Lookup Plugin
TITLE "Sweet"
#LUT size
LUT_3D_SIZE 8
#data domain
#LUT data points
DOMAIN_MIN 0.000000 0.000000 0.000000
DOMAIN_MAX 0.903226 0.903226 0.903226
0.000000 0.000000 0.000000
0.304077 0.000000 0.000000
0.454956 0.000000 0.000000
0.575928 0.000000 0.000000
0.680786 0.000000 0.000000
0.775085 0.000000 0.000000
0.861755 0.000000 0.000000
0.942535 0.000000 0.000000
0.000000 0.029297 0.000000
0.304077 0.029297 0.000000
0.454956 0.029297 0.000000
0.575928 0.029297 0.000000
0.680786 0.029297 0.000000
0.775085 0.029297 0.000000
0.861755 0.029297 0.000000
0.942535 0.029297 0.000000
0.000000 0.096771 0.000000
0.304077 0.096771 0.000000
0.454956 0.096771 0.000000
0.575928 0.096771 0.000000
0.680786 0.096771 0.000000
0.775085 0.096771 0.000000
0.861755 0.096771 0.000000
0.942535 0.096771 0.000000
0.000000 0.194702 0.000000
0.304077 0.194702 0.000000
0.454956 0.194702 0.000000
0.575928 0.194702 0.000000
0.680786 0.194702 0.000000
0.775085 0.194702 0.000000
0.861755 0.194702 0.000000
0.942535 0.194702 0.000000
0.000000 0.319733 0.000000
0.304077 0.319733 0.000000
0.454956 0.319733 0.000000
0.575928 0.319733 0.000000
0.680786 0.319733 0.000000
0.775085 0.319733 0.000000
0.861755 0.319733 0.000000
0.942535 0.319733 0.000000
0.000000 0.469727 0.000000
0.304077 0.469727 0.000000
0.454956 0.469727 0.000000
0.575928 0.469727 0.000000
0.680786 0.469727 0.000000
0.775085 0.469727 0.000000
0.861755 0.469727 0.000000
0.942535 0.469727 0.000000
0.000000 0.643219 0.000000
0.304077 0.643219 0.000000
0.454956 0.643219 0.000000
0.575928 0.643219 0.000000
0.680786 0.643219 0.000000
0.775085 0.643219 0.000000
0.861755 0.643219 0.000000
0.942535 0.643219 0.000000
0.000000 0.839050 0.000000
0.304077 0.839050 0.000000
0.454956 0.839050 0.000000
0.575928 0.839050 0.000000
0.680786 0.839050 0.000000
0.775085 0.839050 0.000000
0.861755 0.839050 0.000000
0.942535 0.839050 0.000000
0.000000 0.000000 0.273621
0.304077 0.000000 0.273621
0.454956 0.000000 0.273621
0.575928 0.000000 0.273621
0.680786 0.000000 0.273621
0.775085 0.000000 0.273621
0.861755 0.000000 0.273621
0.942535 0.000000 0.273621
0.000000 0.029297 0.273621
0.304077 0.029297 0.273621
0.454956 0.029297 0.273621
0.575928 0.029297 0.273621
0.680786 0.029297 0.273621
0.775085 0.029297 0.273621
0.861755 0.029297 0.273621
0.942535 0.029297 0.273621
0.000000 0.096771 0.273621
0.304077 0.096771 0.273621
0.454956 0.096771 0.273621
0.575928 0.096771 0.273621
0.680786 0.096771 0.273621
0.775085 0.096771 0.273621
0.861755 0.096771 0.273621
0.942535 0.096771 0.273621
0.000000 0.194702 0.273621
0.304077 0.194702 0.273621
0.454956 0.194702 0.273621
0.575928 0.194702 0.273621
0.680786 0.194702 0.273621
0.775085 0.194702 0.273621
0.861755 0.194702 0.273621
0.942535 0.194702 0.273621
0.000000 0.319733 0.273621
0.304077 0.319733 0.273621
0.454956 0.319733 0.273621
0.575928 0.319733 0.273621
0.680786 0.319733 0.273621
0.775085 0.319733 0.273621
0.861755 0.319733 0.273621
0.942535 0.319733 0.273621
0.000000 0.469727 0.273621
0.304077 0.469727 0.273621
0.454956 0.469727 0.273621
0.575928 0.469727 0.273621
0.680786 0.469727 0.273621
0.775085 0.469727 0.273621
0.861755 0.469727 0.273621
0.942535 0.469727 0.273621
0.000000 0.643219 0.273621
0.304077 0.643219 0.273621
0.454956 0.643219 0.273621
0.575928 0.643219 0.273621
0.680786 0.643219 0.273621
0.775085 0.643219 0.273621
0.861755 0.643219 0.273621
0.942535 0.643219 0.273621
0.000000 0.839050 0.273621
0.304077 0.839050 0.273621
0.454956 0.839050 0.273621
0.575928 0.839050 0.273621
0.680786 0.839050 0.273621
0.775085 0.839050 0.273621
0.861755 0.839050 0.273621
0.942535 0.839050 0.273621
0.000000 0.000000 0.424286
0.304077 0.000000 0.424286
0.454956 0.000000 0.424286
0.575928 0.000000 0.424286
0.680786 0.000000 0.424286
0.775085 0.000000 0.424286
0.861755 0.000000 0.424286
0.942535 0.000000 0.424286
0.000000 0.029297 0.424286
0.304077 0.029297 0.424286
0.454956 0.029297 0.424286
0.575928 0.029297 0.424286
0.680786 0.029297 0.424286
0.775085 0.029297 0.424286
0.861755 0.029297 0.424286
0.942535 0.029297 0.424286
0.000000 0.096771 0.424286
0.304077 0.096771 0.424286
0.454956 0.096771 0.424286
0.575928 0.096771 0.424286
0.680786 0.096771 0.424286
0.775085 0.096771 0.424286
0.861755 0.096771 0.424286
0.942535 0.096771 0.424286
0.000000 0.194702 0.424286
0.304077 0.194702 0.424286
0.454956 0.194702 0.424286
0.575928 0.194702 0.424286
0.680786 0.194702 0.424286
0.775085 0.194702 0.424286
0.861755 0.194702 0.424286
0.942535 0.194702 0.424286
0.000000 0.319733 0.424286
0.304077 0.319733 0.424286
0.454956 0.319733 0.424286
0.575928 0.319733 0.424286
0.680786 0.319733 0.424286
0.775085 0.319733 0.424286
0.861755 0.319733 0.424286
0.942535 0.319733 0.424286
0.000000 0.469727 0.424286
0.304077 0.469727 0.424286
0.454956 0.469727 0.424286
0.575928 0.469727 0.424286
0.680786 0.469727 0.424286
0.775085 0.469727 0.424286
0.861755 0.469727 0.424286
0.942535 0.469727 0.424286
0.000000 0.643219 0.424286
0.304077 0.643219 0.424286
0.454956 0.643219 0.424286
0.575928 0.643219 0.424286
0.680786 0.643219 0.424286
0.775085 0.643219 0.424286
0.861755 0.643219 0.424286
0.942535 0.643219 0.424286
0.000000 0.839050 0.424286
0.304077 0.839050 0.424286
0.454956 0.839050 0.424286
0.575928 0.839050 0.424286
0.680786 0.839050 0.424286
0.775085 0.839050 0.424286
0.861755 0.839050 0.424286
0.942535 0.839050 0.424286
0.000000 0.000000 0.548431
0.304077 0.000000 0.548431
0.454956 0.000000 0.548431
0.575928 0.000000 0.548431
0.680786 0.000000 0.548431
0.775085 0.000000 0.548431
0.861755 0.000000 0.548431
0.942535 0.000000 0.548431
0.000000 0.029297 0.548431
0.304077 0.029297 0.548431
0.454956 0.029297 0.548431
0.575928 0.029297 0.548431
0.680786 0.029297 0.548431
0.775085 0.029297 0.548431
0.861755 0.029297 0.548431
0.942535 0.029297 0.548431
0.000000 0.096771 0.548431
0.304077 0.096771 0.548431
0.454956 0.096771 0.548431
0.575928 0.096771 0.548431
0.680786 0.096771 0.548431
0.775085 0.096771 0.548431
0.861755 0.096771 0.548431
0.942535 0.096771 0.548431
0.000000 0.194702 0.548431
0.304077 0.194702 0.548431
0.454956 0.194702 0.548431
0.575928 0.194702 0.548431
0.680786 0.194702 0.548431
0.775085 0.194702 0.548431
0.861755 0.194702 0.548431
0.942535 0.194702 0.548431
0.000000 0.319733 0.548431
0.304077 0.319733 0.548431
0.454956 0.319733 0.548431
0.575928 0.319733 0.548431
0.680786 0.319733 0.548431
0.775085 0.319733 0.548431
0.861755 0.319733 0.548431
0.942535 0.319733 0.548431
0.000000 0.469727 0.548431
0.304077 0.469727 0.548431
0.454956 0.469727 0.548431
0.575928 0.469727 0.548431
0.680786 0.469727 0.548431
0.775085 0.469727 0.548431
0.861755 0.469727 0.548431
0.942535 0.469727 0.548431
0.000000 0.643219 0.548431
0.304077 0.643219 0.548431
0.454956 0.643219 0.548431
0.575928 0.643219 0.548431
0.680786 0.643219 0.548431
0.775085 0.643219 0.548431
0.861755 0.643219 0.548431
0.942535 0.643219 0.548431
0.000000 0.839050 0.548431
0.304077 0.839050 0.548431
0.454956 0.839050 0.548431
0.575928 0.839050 0.548431
0.680786 0.839050 0.548431
0.775085 0.839050 0.548431
0.861755 0.839050 0.548431
0.942535 0.839050 0.548431
0.000000 0.000000 0.657990
0.304077 0.000000 0.657990
0.454956 0.000000 0.657990
0.575928 0.000000 0.657990
0.680786 0.000000 0.657990
0.775085 0.000000 0.657990
0.861755 0.000000 0.657990
0.942535 0.000000 0.657990
0.000000 0.029297 0.657990
0.304077 0.029297 0.657990
0.454956 0.029297 0.657990
0.575928 0.029297 0.657990
0.680786 0.029297 0.657990
0.775085 0.029297 0.657990
0.861755 0.029297 0.657990
0.942535 0.029297 0.657990
0.000000 0.096771 0.657990
0.304077 0.096771 0.657990
0.454956 0.096771 0.657990
0.575928 0.096771 0.657990
0.680786 0.096771 0.657990
0.775085 0.096771 0.657990
0.861755 0.096771 0.657990
0.942535 0.096771 0.657990
0.000000 0.194702 0.657990
0.304077 0.194702 0.657990
0.454956 0.194702 0.657990
0.575928 0.194702 0.657990
0.680786 0.194702 0.657990
0.775085 0.194702 0.657990
0.861755 0.194702 0.657990
0.942535 0.194702 0.657990
0.000000 0.319733 0.657990
0.304077 0.319733 0.657990
0.454956 0.319733 0.657990
0.575928 0.319733 0.657990
0.680786 0.319733 0.657990
0.775085 0.319733 0.657990
0.861755 0.319733 0.657990
0.942535 0.319733 0.657990
0.000000 0.469727 0.657990
0.304077 0.469727 0.657990
0.454956 0.469727 0.657990
0.575928 0.469727 0.657990
0.680786 0.469727 0.657990
0.775085 0.469727 0.657990
0.861755 0.469727 0.657990
0.942535 0.469727 0.657990
0.000000 0.643219 0.657990
0.304077 0.643219 0.657990
0.454956 0.643219 0.657990
0.575928 0.643219 0.657990
0.680786 0.643219 0.657990
0.775085 0.643219 0.657990
0.861755 0.643219 0.657990
0.942535 0.643219 0.657990
0.000000 0.839050 0.657990
0.304077 0.839050 0.657990
0.454956 0.839050 0.657990
0.575928 0.839050 0.657990
0.680786 0.839050 0.657990
0.775085 0.839050 0.657990
0.861755 0.839050 0.657990
0.942535 0.839050 0.657990
0.000000 0.000000 0.757782
0.304077 0.000000 0.757782
0.454956 0.000000 0.757782
0.575928 0.000000 0.757782
0.680786 0.000000 0.757782
0.775085 0.000000 0.757782
0.861755 0.000000 0.757782
0.942535 0.000000 0.757782
0.000000 0.029297 0.757782
0.304077 0.029297 0.757782
0.454956 0.029297 0.757782
0.575928 0.029297 0.757782
0.680786 0.029297 0.757782
0.775085 0.029297 0.757782
0.861755 0.029297 0.757782
0.942535 0.029297 0.757782
0.000000 0.096771 0.757782
0.304077 0.096771 0.757782
0.454956 0.096771 0.757782
0.575928 0.096771 0.757782
0.680786 0.096771 0.757782
0.775085 0.096771 0.757782
0.861755 0.096771 0.757782
0.942535 0.096771 0.757782
0.000000 0.194702 0.757782
0.304077 0.194702 0.757782
0.454956 0.194702 0.757782
0.575928 0.194702 0.757782
0.680786 0.194702 0.757782
0.775085 0.194702 0.757782
0.861755 0.194702 0.757782
0.942535 0.194702 0.757782
0.000000 0.319733 0.757782
0.304077 0.319733 0.757782
0.454956 0.319733 0.757782
0.575928 0.319733 0.757782
0.680786 0.319733 0.757782
0.775085 0.319733 0.757782
0.861755 0.319733 0.757782
0.942535 0.319733 0.757782
0.000000 0.469727 0.757782
0.304077 0.469727 0.757782
0.454956 0.469727 0.757782
0.575928 0.469727 0.757782
0.680786 0.469727 0.757782
0.775085 0.469727 0.757782
0.861755 0.469727 0.757782
0.942535 0.469727 0.757782
0.000000 0.643219 0.757782
0.304077 0.643219 0.757782
0.454956 0.643219 0.757782
0.575928 0.643219 0.757782
0.680786 0.643219 0.757782
0.775085 0.643219 0.757782
0.861755 0.643219 0.757782
0.942535 0.643219 0.757782
0.000000 0.839050 0.757782
0.304077 0.839050 0.757782
0.454956 0.839050 0.757782
0.575928 0.839050 0.757782
0.680786 0.839050 0.757782
0.775085 0.839050 0.757782
0.861755 0.839050 0.757782
0.942535 0.839050 0.757782
0.000000 0.000000 0.850464
0.304077 0.000000 0.850464
0.454956 0.000000 0.850464
0.575928 0.000000 0.850464
0.680786 0.000000 0.850464
0.775085 0.000000 0.850464
0.861755 0.000000 0.850464
0.942535 0.000000 0.850464
0.000000 0.029297 0.850464
0.304077 0.029297 0.850464
0.454956 0.029297 0.850464
0.575928 0.029297 0.850464
0.680786 0.029297 0.850464
0.775085 0.029297 0.850464
0.861755 0.029297 0.850464
0.942535 0.029297 0.850464
0.000000 0.096771 0.850464
0.304077 0.096771 0.850464
0.454956 0.096771 0.850464
0.575928 0.096771 0.850464
0.680786 0.096771 0.850464
0.775085 0.096771 0.850464
0.861755 0.096771 0.850464
0.942535 0.096771 0.850464
0.000000 0.194702 0.850464
0.304077 0.194702 0.850464
0.454956 0.194702 0.850464
0.575928 0.194702 0.850464
0.680786 0.194702 0.850464
0.775085 0.194702 0.850464
0.861755 0.194702 0.850464
0.942535 0.194702 0.850464
0.000000 0.319733 0.850464
0.304077 0.319733 0.850464
0.454956 0.319733 0.850464
0.575928 0.319733 0.850464
0.680786 0.319733 0.850464
0.775085 0.319733 0.850464
0.861755 0.319733 0.850464
0.942535 0.319733 0.850464
0.000000 0.469727 0.850464
0.304077 0.469727 0.850464
0.454956 0.469727 0.850464
0.575928 0.469727 0.850464
0.680786 0.469727 0.850464
0.775085 0.469727 0.850464
0.861755 0.469727 0.850464
0.942535 0.469727 0.850464
0.000000 0.643219 0.850464
0.304077 0.643219 0.850464
0.454956 0.643219 0.850464
0.575928 0.643219 0.850464
0.680786 0.643219 0.850464
0.775085 0.643219 0.850464
0.861755 0.643219 0.850464
0.942535 0.643219 0.850464
0.000000 0.839050 0.850464
0.304077 0.839050 0.850464
0.454956 0.839050 0.850464
0.575928 0.839050 0.850464
0.680786 0.839050 0.850464
0.775085 0.839050 0.850464
0.861755 0.839050 0.850464
0.942535 0.839050 0.850464
0.000000 0.000000 0.937622
0.304077 0.000000 0.937622
0.454956 0.000000 0.937622
0.575928 0.000000 0.937622
0.680786 0.000000 0.937622
0.775085 0.000000 0.937622
0.861755 0.000000 0.937622
0.942535 0.000000 0.937622
0.000000 0.029297 0.937622
0.304077 0.029297 0.937622
0.454956 0.029297 0.937622
0.575928 0.029297 0.937622
0.680786 0.029297 0.937622
0.775085 0.029297 0.937622
0.861755 0.029297 0.937622
0.942535 0.029297 0.937622
0.000000 0.096771 0.937622
0.304077 0.096771 0.937622
0.454956 0.096771 0.937622
0.575928 0.096771 0.937622
0.680786 0.096771 0.937622
0.775085 0.096771 0.937622
0.861755 0.096771 0.937622
0.942535 0.096771 0.937622
0.000000 0.194702 0.937622
0.304077 0.194702 0.937622
0.454956 0.194702 0.937622
0.575928 0.194702 0.937622
0.680786 0.194702 0.937622
0.775085 0.194702 0.937622
0.861755 0.194702 0.937622
0.942535 0.194702 0.937622
0.000000 0.319733 0.937622
0.304077 0.319733 0.937622
0.454956 0.319733 0.937622
0.575928 0.319733 0.937622
0.680786 0.319733 0.937622
0.775085 0.319733 0.937622
0.861755 0.319733 0.937622
0.942535 0.319733 0.937622
0.000000 0.469727 0.937622
0.304077 0.469727 0.937622
0.454956 0.469727 0.937622
0.575928 0.469727 0.937622
0.680786 0.469727 0.937622
0.775085 0.469727 0.937622
0.861755 0.469727 0.937622
0.942535 0.469727 0.937622
0.000000 0.643219 0.937622
0.304077 0.643219 0.937622
0.454956 0.643219 0.937622
0.575928 0.643219 0.937622
0.680786 0.643219 0.937622
0.775085 0.643219 0.937622
0.861755 0.643219 0.937622
0.942535 0.643219 0.937622
0.000000 0.839050 0.937622
0.304077 0.839050 0.937622
0.454956 0.839050 0.937622
0.575928 0.839050 0.937622
0.680786 0.839050 0.937622
0.775085 0.839050 0.937622
0.861755 0.839050 0.937622
0.942535 0.839050 0.937622
