res/luts/Sweet.CUBE
#Created by: Adobe Photoshop Export Color Lookup Plugin
TITLE "Sweet"
#LUT size
LUT_3D_SIZE 32
#data domain
DOMAIN_MIN 0.0 0.0 0.0
DOMAIN_MAX 1.0 1.0 1.0
#LUT data points
0.000000 0.000000 0.000000
0.100128 0.000000 0.000000
0.185944 0.000000 0.000000
0.254456 0.000000 0.000000
0.304077 0.000000 0.000000
0.346161 0.000000 0.000000
0.384888 0.000000 0.000000
0.420990 0.000000 0.000000
0.454956 0.000000 0.000000
0.487213 0.000000 0.000000
0.517975 0.000000 0.000000
0.547516 0.000000 0.000000
0.575928 0.000000 0.000000
0.603333 0.000000 0.000000
0.629913 0.000000 0.000000
0.655670 0.000000 0.000000
0.680786 0.000000 0.000000
0.705231 0.000000 0.000000
0.729034 0.000000 0.000000
0.752319 0.000000 0.000000
0.775085 0.000000 0.000000
0.797394 0.000000 0.000000
0.819214 0.000000 0.000000
0.840698 0.000000 0.000000
0.861755 0.000000 0.000000
0.882446 0.000000 0.000000
0.902802 0.000000 0.000000
0.922852 0.000000 0.000000
0.942535 0.000000 0.000000
0.961975 0.000000 0.000000
0.981110 0.000000 0.000000
1.000000 0.000000 0.000000
0.000000 0.002686 0.000000
0.100128 0.002686 0.000000
0.185944 0.002686 0.000000
0.254456 0.002686 0.000000
0.304077 0.002686 0.000000
0.346161 0.002686 0.000000
0.384888 0.002686 0.000000
0.420990 0.002686 0.000000
0.454956 0.002686 0.000000
0.487213 0.002686 0.000000
0.517975 0.002686 0.000000
0.547516 0.002686 0.000000
0.575928 0.002686 0.000000
0.603333 0.002686 0.000000
0.629913 0.002686 0.000000
0.655670 0.002686 0.000000
0.680786 0.002686 0.000000
0.705231 0.002686 0.000000
0.729034 0.002686 0.000000
0.752319 0.002686 0.000000
0.775085 0.002686 0.000000
0.797394 0.002686 0.000000
0.819214 0.002686 0.000000
0.840698 0.002686 0.000000
0.861755 0.002686 0.000000
0.882446 0.002686 0.000000
0.902802 0.002686 0.000000
0.922852 0.002686 0.000000
0.942535 0.002686 0.000000
0.961975 0.002686 0.000000
0.981110 0.002686 0.000000
1.000000 0.002686 0.000000
0.000000 0.008881 0.000000
0.100128 0.008881 0.000000
0.185944 0.008881 0.000000
0.254456 0.008881 0.000000
0.304077 0.008881 0.000000
0.346161 0.008881 0.000000
0.384888 0.008881 0.000000
0.420990 0.008881 0.000000
0.454956 0.008881 0.000000
0.487213 0.008881 0.000000
0.517975 0.008881 0.000000
0.547516 0.008881 0.000000
0.575928 0.008881 0.000000
0.603333 0.008881 0.000000
0.629913 0.008881 0.000000
0.655670 0.008881 0.000000
0.680786 0.008881 0.000000
0.705231 0.008881 0.000000
0.729034 0.008881 0.000000
0.752319 0.008881 0.000000
0.775085 0.008881 0.000000
0.797394 0.008881 0.000000
0.819214 0.008881 0.000000
0.840698 0.008881 0.000000
0.861755 0.008881 0.000000
0.882446 0.008881 0.000000
0.902802 0.008881 0.000000
0.922852 0.008881 0.000000
0.942535 0.008881 0.000000
0.961975 0.008881 0.000000
0.981110 0.008881 0.000000
1.000000 0.008881 0.000000
0.000000 0.017822 0.000000
0.100128 0.017822 0.000000
0.185944 0.017822 0.000000
0.254456 0.017822 0.000000
0.304077 0.017822 0.000000
0.346161 0.017822 0.000000
0.384888 0.017822 0.000000
0.420990 0.017822 0.000000
0.454956 0.017822 0.000000
0.487213 0.017822 0.000000
0.517975 0.017822 0.000000
0.547516 0.017822 0.000000
0.575928 0.017822 0.000000
0.603333 0.017822 0.000000
0.629913 0.017822 0.000000
0.655670 0.017822 0.000000
0.680786 0.017822 0.000000
0.705231 0.017822 0.000000
0.729034 0.017822 0.000000
0.752319 0.017822 0.000000
0.775085 0.017822 0.000000
0.797394 0.017822 0.000000
0.819214 0.017822 0.000000
0.840698 0.017822 0.000000
0.861755 0.017822 0.000000
0.882446 0.017822 0.000000
0.902802 0.017822 0.000000
0.922852 0.017822 0.000000
0.942535 0.017822 0.000000
0.961975 0.017822 0.000000
0.981110 0.017822 0.000000
1.000000 0.017822 0.000000
0.000000 0.029297 0.000000
0.100128 0.029297 0.000000
0.185944 0.029297 0.000000
0.254456 0.029297 0.000000
0.304077 0.029297 0.000000
0.346161 0.029297 0.000000
0.384888 0.029297 0.000000
0.420990 0.029297 0.000000
0.454956 0.029297 0.000000
0.487213 0.029297 0.000000
0.517975 0.029297 0.000000
0.547516 0.029297 0.000000
0.575928 0.029297 0.000000
0.603333 0.029297 0.000000
0.629913 0.029297 0.000000
0.655670 0.029297 0.000000
0.680786 0.029297 0.000000
0.705231 0.029297 0.000000
0.729034 0.029297 0.000000
0.752319 0.029297 0.000000
0.775085 0.029297 0.000000
0.797394 0.029297 0.000000
0.819214 0.029297 0.000000
0.840698 0.029297 0.000000
0.861755 0.029297 0.000000
0.882446 0.029297 0.000000
0.902802 0.029297 0.000000
0.922852 0.029297 0.000000
0.942535 0.029297 0.000000
0.961975 0.029297 0.000000
0.981110 0.029297 0.000000
1.000000 0.029297 0.000000
0.000000 0.043030 0.000000
0.100128 0.043030 0.000000
0.185944 0.043030 0.000000
0.254456 0.043030 0.000000
0.304077 0.043030 0.000000
0.346161 0.043030 0.000000
0.384888 0.043030 0.000000
0.420990 0.043030 0.000000
0.454956 0.043030 0.000000
0.487213 0.043030 0.000000
0.517975 0.043030 0.000000
0.547516 0.043030 0.000000
0.575928 0.043030 0.000000
0.603333 0.043030 0.000000
0.629913 0.043030 0.000000
0.655670 0.043030 0.000000
0.680786 0.043030 0.000000
0.705231 0.043030 0.000000
0.729034 0.043030 0.000000
0.752319 0.043030 0.000000
0.775085 0.043030 0.000000
0.797394 0.043030 0.000000
0.819214 0.043030 0.000000
0.840698 0.043030 0.000000
0.861755 0.043030 0.000000
0.882446 0.043030 0.000000
0.902802 0.043030 0.000000
0.922852 0.043030 0.000000
0.942535 0.043030 0.000000
0.961975 0.043030 0.000000
0.981110 0.043030 0.000000
1.000000 0.043030 0.000000
0.000000 0.058929 0.000000
0.100128 0.058929 0.000000
0.185944 0.058929 0.000000
0.254456 0.058929 0.000000
0.304077 0.058929 0.000000
0.346161 0.058929 0.000000
0.384888 0.058929 0.000000
0.420990 0.058929 0.000000
0.454956 0.058929 0.000000
0.487213 0.058929 0.000000
0.517975 0.058929 0.000000
0.547516 0.058929 0.000000
0.575928 0.058929 0.000000
0.603333 0.058929 0.000000
0.629913 0.058929 0.000000
0.655670 0.058929 0.000000
0.680786 0.058929 0.000000
0.705231 0.058929 0.000000
0.729034 0.058929 0.000000
0.752319 0.058929 0.000000
0.775085 0.058929 0.000000
0.797394 0.058929 0.000000
0.819214 0.058929 0.000000
0.840698 0.058929 0.000000
0.861755 0.058929 0.000000
0.882446 0.058929 0.000000
0.902802 0.058929 0.000000
0.922852 0.058929 0.000000
0.942535 0.058929 0.000000
0.961975 0.058929 0.000000
0.981110 0.058929 0.000000
1.000000 0.058929 0.000000
0.000000 0.076874 0.000000
0.100128 0.076874 0.000000
0.185944 0.076874 0.000000
0.254456 0.076874 0.000000
0.304077 0.076874 0.000000
0.346161 0.076874 0.000000
0.384888 0.076874 0.000000
0.420990 0.076874 0.000000
0.454956 0.076874 0.000000
0.487213 0.076874 0.000000
0.517975 0.076874 0.000000
0.547516 0.076874 0.000000
0.575928 0.076874 0.000000
0.603333 0.076874 0.000000
0.629913 0.076874 0.000000
0.655670 0.076874 0.000000
0.680786 0.076874 0.000000
0.705231 0.076874 0.000000
0.729034 0.076874 0.000000
0.752319 0.076874 0.000000
0.775085 0.076874 0.000000
0.797394 0.076874 0.000000
0.819214 0.076874 0.000000
0.840698 0.076874 0.000000
0.861755 0.076874 0.000000
0.882446 0.076874 0.000000
0.902802 0.076874 0.000000
0.922852 0.076874 0.000000
0.942535 0.076874 0.000000
0.961975 0.076874 0.000000
0.981110 0.076874 0.000000
1.000000 0.076874 0.000000
0.000000 0.096771 0.000000
0.100128 0.096771 0.000000
0.185944 0.096771 0.000000
0.254456 0.096771 0.000000
0.304077 0.096771 0.000000
0.346161 0.096771 0.000000
0.384888 0.096771 0.000000
0.420990 0.096771 0.000000
0.454956 0.096771 0.000000
0.487213 0.096771 0.000000
0.517975 0.096771 0.000000
0.547516 0.096771 0.000000
0.575928 0.096771 0.000000
0.603333 0.096771 0.000000
0.629913 0.096771 0.000000
0.655670 0.096771 0.000000
0.680786 0.096771 0.000000
0.705231 0.096771 0.000000
0.729034 0.096771 0.000000
0.752319 0.096771 0.000000
0.775085 0.096771 0.000000
0.797394 0.096771 0.000000
0.819214 0.096771 0.000000
0.840698 0.096771 0.000000
0.861755 0.096771 0.000000
0.882446 0.096771 0.000000
0.902802 0.096771 0.000000
0.922852 0.096771 0.000000
0.942535 0.096771 0.000000
0.961975 0.096771 0.000000
0.981110 0.096771 0.000000
1.000000 0.096771 0.000000
0.000000 0.118561 0.000000
0.100128 0.118561 0.000000
0.185944 0.118561 0.000000
0.254456 0.118561 0.000000
0.304077 0.118561 0.000000
0.346161 0.118561 0.000000
0.384888 0.118561 0.000000
0.420990 0.118561 0.000000
0.454956 0.118561 0.000000
0.487213 0.118561 0.000000
0.517975 0.118561 0.000000
0.547516 0.118561 0.000000
0.575928 0.118561 0.000000
0.603333 0.118561 0.000000
0.629913 0.118561 0.000000
0.655670 0.118561 0.000000
0.680786 0.118561 0.000000
0.705231 0.118561 0.000000
0.729034 0.118561 0.000000
0.752319 0.118561 0.000000
0.775085 0.118561 0.000000
0.797394 0.118561 0.000000
0.819214 0.118561 0.000000
0.840698 0.118561 0.000000
0.861755 0.118561 0.000000
0.882446 0.118561 0.000000
0.902802 0.118561 0.000000
0.922852 0.118561 0.000000
0.942535 0.118561 0.000000
0.961975 0.118561 0.000000
0.981110 0.118561 0.000000
1.000000 0.118561 0.000000
0.000000 0.142181 0.000000
0.100128 0.142181 0.000000
0.185944 0.142181 0.000000
0.254456 0.142181 0.000000
0.304077 0.142181 0.000000
0.346161 0.142181 0.000000
0.384888 0.142181 0.000000
0.420990 0.142181 0.000000
0.454956 0.142181 0.000000
0.487213 0.142181 0.000000
0.517975 0.142181 0.000000
0.547516 0.142181 0.000000
0.575928 0.142181 0.000000
0.603333 0.142181 0.000000
0.629913 0.142181 0.000000
0.655670 0.142181 0.000000
0.680786 0.142181 0.000000
0.705231 0.142181 0.000000
0.729034 0.142181 0.000000
0.752319 0.142181 0.000000
0.775085 0.142181 0.000000
0.797394 0.142181 0.000000
0.819214 0.142181 0.000000
0.840698 0.142181 0.000000
0.861755 0.142181 0.000000
0.882446 0.142181 0.000000
0.902802 0.142181 0.000000
0.922852 0.142181 0.000000
0.942535 0.142181 0.000000
0.961975 0.142181 0.000000
0.981110 0.142181 0.000000
1.000000 0.142181 0.000000
0.000000 0.167572 0.000000
0.100128 0.167572 0.000000
0.185944 0.167572 0.000000
0.254456 0.167572 0.000000
0.304077 0.167572 0.000000
0.346161 0.167572 0.000000
0.384888 0.167572 0.000000
0.420990 0.167572 0.000000
0.454956 0.167572 0.000000
0.487213 0.167572 0.000000
0.517975 0.167572 0.000000
0.547516 0.167572 0.000000
0.575928 0.167572 0.000000
0.603333 0.167572 0.000000
0.629913 0.167572 0.000000
0.655670 0.167572 0.000000
0.680786 0.167572 0.000000
0.705231 0.167572 0.000000
0.729034 0.167572 0.000000
0.752319 0.167572 0.000000
0.775085 0.167572 0.000000
0.797394 0.167572 0.000000
0.819214 0.167572 0.000000
0.840698 0.167572 0.000000
0.861755 0.167572 0.000000
0.882446 0.167572 0.000000
0.902802 0.167572 0.000000
0.922852 0.167572 0.000000
0.942535 0.167572 0.000000
0.961975 0.167572 0.000000
0.981110 0.167572 0.000000
1.000000 0.167572 0.000000
0.000000 0.194702 0.000000
0.100128 0.194702 0.000000
0.185944 0.194702 0.000000
0.254456 0.194702 0.000000
0.304077 0.194702 0.000000
0.346161 0.194702 0.000000
0.384888 0.194702 0.000000
0.420990 0.194702 0.000000
0.454956 0.194702 0.000000
0.487213 0.194702 0.000000
0.517975 0.194702 0.000000
0.547516 0.194702 0.000000
0.575928 0.194702 0.000000
0.603333 0.194702 0.000000
0.629913 0.194702 0.000000
0.655670 0.194702 0.000000
0.680786 0.194702 0.000000
0.705231 0.194702 0.000000
0.729034 0.194702 0.000000
0.752319 0.194702 0.000000
0.775085 0.194702 0.000000
0.797394 0.194702 0.000000
0.819214 0.194702 0.000000
0.840698 0.194702 0.000000
0.861755 0.194702 0.000000
0.882446 0.194702 0.000000
0.902802 0.194702 0.000000
0.922852 0.194702 0.000000
0.942535 0.194702 0.000000
0.961975 0.194702 0.000000
0.981110 0.194702 0.000000
1.000000 0.194702 0.000000
0.000000 0.223480 0.000000
0.100128 0.223480 0.000000
0.185944 0.223480 0.000000
0.254456 0.223480 0.000000
0.304077 0.223480 0.000000
0.346161 0.223480 0.000000
0.384888 0.223480 0.000000
0.420990 0.223480 0.000000
0.454956 0.223480 0.000000
0.487213 0.223480 0.000000
0.517975 0.223480 0.000000
0.547516 0.223480 0.000000
0.575928 0.223480 0.000000
0.603333 0.223480 0.000000
0.629913 0.223480 0.000000
0.655670 0.223480 0.000000
0.680786 0.223480 0.000000
0.705231 0.223480 0.000000
0.729034 0.223480 0.000000
0.752319 0.223480 0.000000
0.775085 0.223480 0.000000
0.797394 0.223480 0.000000
0.819214 0.223480 0.000000
0.840698 0.223480 0.000000
0.861755 0.223480 0.000000
0.882446 0.223480 0.000000
0.902802 0.223480 0.000000
0.922852 0.223480 0.000000
0.942535 0.223480 0.000000
0.961975 0.223480 0.000000
0.981110 0.223480 0.000000
1.000000 0.223480 0.000000
0.000000 0.253937 0.000000
0.100128 0.253937 0.000000
0.185944 0.253937 0.000000
0.254456 0.253937 0.000000
0.304077 0.253937 0.000000
0.346161 0.253937 0.000000
0.384888 0.253937 0.000000
0.420990 0.253937 0.000000
0.454956 0.253937 0.000000
0.487213 0.253937 0.000000
0.517975 0.253937 0.000000
0.547516 0.253937 0.000000
0.575928 0.253937 0.000000
0.603333 0.253937 0.000000
0.629913 0.253937 0.000000
0.655670 0.253937 0.000000
0.680786 0.253937 0.000000
0.705231 0.253937 0.000000
0.729034 0.253937 0.000000
0.752319 0.253937 0.000000
0.775085 0.253937 0.000000
0.797394 0.253937 0.000000
0.819214 0.253937 0.000000
0.840698 0.253937 0.000000
0.861755 0.253937 0.000000
0.882446 0.253937 0.000000
0.902802 0.253937 0.000000
0.922852 0.253937 0.000000
0.942535 0.253937 0.000000
0.961975 0.253937 0.000000
0.981110 0.253937 0.000000
1.000000 0.253937 0.000000
0.000000 0.286041 0.000000
0.100128 0.286041 0.000000
0.185944 0.286041 0.000000
0.254456 0.286041 0.000000
0.304077 0.286041 0.000000
0.346161 0.286041 0.000000
0.384888 0.286041 0.000000
0.420990 0.286041 0.000000
0.454956 0.286041 0.000000
0.487213 0.286041 0.000000
0.517975 0.286041 0.000000
0.547516 0.286041 0.000000
0.575928 0.286041 0.000000
0.603333 0.286041 0.000000
0.629913 0.286041 0.000000
0.655670 0.286041 0.000000
0.680786 0.286041 0.000000
0.705231 0.286041 0.000000
0.729034 0.286041 0.000000
0.752319 0.286041 0.000000
0.775085 0.286041 0.000000
0.797394 0.286041 0.000000
0.819214 0.286041 0.000000
0.840698 0.286041 0.000000
0.861755 0.286041 0.000000
0.882446 0.286041 0.000000
0.902802 0.286041 0.000000
0.922852 0.286041 0.000000
0.942535 0.286041 0.000000
0.961975 0.286041 0.000000
0.981110 0.286041 0.000000
1.000000 0.286041 0.000000
0.000000 0.319733 0.000000
0.100128 0.319733 0.000000
0.185944 0.319733 0.000000
0.254456 0.319733 0.000000
0.304077 0.319733 0.000000
0.346161 0.319733 0.000000
0.384888 0.319733 0.000000
0.420990 0.319733 0.000000
0.454956 0.319733 0.000000
0.487213 0.319733 0.000000
0.517975 0.319733 0.000000
0.547516 0.319733 0.000000
0.575928 0.319733 0.000000
0.603333 0.319733 0.000000
0.629913 0.319733 0.000000
0.655670 0.319733 0.000000
0.680786 0.319733 0.000000
0.705231 0.319733 0.000000
0.729034 0.319733 0.000000
0.752319 0.319733 0.000000
0.775085 0.319733 0.000000
0.797394 0.319733 0.000000
0.819214 0.319733 0.000000
0.840698 0.319733 0.000000
0.861755 0.319733 0.000000
0.882446 0.319733 0.000000
0.902802 0.319733 0.000000
0.922852 0.319733 0.000000
0.942535 0.319733 0.000000
0.961975 0.319733 0.000000
0.981110 0.319733 0.000000
1.000000 0.319733 0.000000
0.000000 0.354950 0.000000
0.100128 0.354950 0.000000
0.185944 0.354950 0.000000
0.254456 0.354950 0.000000
0.304077 0.354950 0.000000
0.346161 0.354950 0.000000
0.384888 0.354950 0.000000
0.420990 0.354950 0.000000
0.454956 0.354950 0.000000
0.487213 0.354950 0.000000
0.517975 0.354950 0.000000
0.547516 0.354950 0.000000
0.575928 0.354950 0.000000
0.603333 0.354950 0.000000
0.629913 0.354950 0.000000
0.655670 0.354950 0.000000
0.680786 0.354950 0.000000
0.705231 0.354950 0.000000
0.729034 0.354950 0.000000
0.752319 0.354950 0.000000
0.775085 0.354950 0.000000
0.797394 0.354950 0.000000
0.819214 0.354950 0.000000
0.840698 0.354950 0.000000
0.861755 0.354950 0.000000
0.882446 0.354950 0.000000
0.902802 0.354950 0.000000
0.922852 0.354950 0.000000
0.942535 0.354950 0.000000
0.961975 0.354950 0.000000
0.981110 0.354950 0.000000
1.000000 0.354950 0.000000
0.000000 0.391693 0.000000
0.100128 0.391693 0.000000
0.185944 0.391693 0.000000
0.254456 0.391693 0.000000
0.304077 0.391693 0.000000
0.346161 0.391693 0.000000
0.384888 0.391693 0.000000
0.420990 0.391693 0.000000
0.454956 0.391693 0.000000
0.487213 0.391693 0.000000
0.517975 0.391693 0.000000
0.547516 0.391693 0.000000
0.575928 0.391693 0.000000
0.603333 0.391693 0.000000
0.629913 0.391693 0.000000
0.655670 0.391693 0.000000
0.680786 0.391693 0.000000
0.705231 0.391693 0.000000
0.729034 0.391693 0.000000
0.752319 0.391693 0.000000
0.775085 0.391693 0.000000
0.797394 0.391693 0.000000
0.819214 0.391693 0.000000
0.840698 0.391693 0.000000
0.861755 0.391693 0.000000
0.882446 0.391693 0.000000
0.902802 0.391693 0.000000
0.922852 0.391693 0.000000
0.942535 0.391693 0.000000
0.961975 0.391693 0.000000
0.981110 0.391693 0.000000
1.000000 0.391693 0.000000
0.000000 0.429993 0.000000
0.100128 0.429993 0.000000
0.185944 0.429993 0.000000
0.254456 0.429993 0.000000
0.304077 0.429993 0.000000
0.346161 0.429993 0.000000
0.384888 0.429993 0.000000
0.420990 0.429993 0.000000
0.454956 0.429993 0.000000
0.487213 0.429993 0.000000
0.517975 0.429993 0.000000
0.547516 0.429993 0.000000
0.575928 0.429993 0.000000
0.603333 0.429993 0.000000
0.629913 0.429993 0.000000
0.655670 0.429993 0.000000
0.680786 0.429993 0.000000
0.705231 0.429993 0.000000
0.729034 0.429993 0.000000
0.752319 0.429993 0.000000
0.775085 0.429993 0.000000
0.797394 0.429993 0.000000
0.819214 0.429993 0.000000
0.840698 0.429993 0.000000
0.861755 0.429993 0.000000
0.882446 0.429993 0.000000
0.902802 0.429993 0.000000
0.922852 0.429993 0.000000
0.942535 0.429993 0.000000
0.961975 0.429993 0.000000
0.981110 0.429993 0.000000
1.000000 0.429993 0.000000
0.000000 0.469727 0.000000
0.100128 0.469727 0.000000
0.185944 0.469727 0.000000
0.254456 0.469727 0.000000
0.304077 0.469727 0.000000
0.346161 0.469727 0.000000
0.384888 0.469727 0.000000
0.420990 0.469727 0.000000
0.454956 0.469727 0.000000
0.487213 0.469727 0.000000
0.517975 0.469727 0.000000
0.547516 0.469727 0.000000
0.575928 0.469727 0.000000
0.603333 0.469727 0.000000
0.629913 0.469727 0.000000
0.655670 0.469727 0.000000
0.680786 0.469727 0.000000
0.705231 0.469727 0.000000
0.729034 0.469727 0.000000
0.752319 0.469727 0.000000
0.775085 0.469727 0.000000
0.797394 0.469727 0.000000
0.819214 0.469727 0.000000
0.840698 0.469727 0.000000
0.861755 0.469727 0.000000
0.882446 0.469727 0.000000
0.902802 0.469727 0.000000
0.922852 0.469727 0.000000
0.942535 0.469727 0.000000
0.961975 0.469727 0.000000
0.981110 0.469727 0.000000
1.000000 0.469727 0.000000
0.000000 0.510956 0.000000
0.100128 0.510956 0.000000
0.185944 0.510956 0.000000
0.254456 0.510956 0.000000
0.304077 0.510956 0.000000
0.346161 0.510956 0.000000
0.384888 0.510956 0.000000
0.420990 0.510956 0.000000
0.454956 0.510956 0.000000
0.487213 0.510956 0.000000
0.517975 0.510956 0.000000
0.547516 0.510956 0.000000
0.575928 0.510956 0.000000
0.603333 0.510956 0.000000
0.629913 0.510956 0.000000
0.655670 0.510956 0.000000
0.680786 0.510956 0.000000
0.705231 0.510956 0.000000
0.729034 0.510956 0.000000
0.752319 0.510956 0.000000
0.775085 0.510956 0.000000
0.797394 0.510956 0.000000
0.819214 0.510956 0.000000
0.840698 0.510956 0.000000
0.861755 0.510956 0.000000
0.882446 0.510956 0.000000
0.902802 0.510956 0.000000
0.922852 0.510956 0.000000
0.942535 0.510956 0.000000
0.961975 0.510956 0.000000
0.981110 0.510956 0.000000
1.000000 0.510956 0.000000
0.000000 0.553650 0.000000
0.100128 0.553650 0.000000
0.185944 0.553650 0.000000
0.254456 0.553650 0.000000
0.304077 0.553650 0.000000
0.346161 0.553650 0.000000
0.384888 0.553650 0.000000
0.420990 0.553650 0.000000
0.454956 0.553650 0.000000
0.487213 0.553650 0.000000
0.517975 0.553650 0.000000
0.547516 0.553650 0.000000
0.575928 0.553650 0.000000
0.603333 0.553650 0.000000
0.629913 0.553650 0.000000
0.655670 0.553650 0.000000
0.680786 0.553650 0.000000
0.705231 0.553650 0.000000
0.729034 0.553650 0.000000
0.752319 0.553650 0.000000
0.775085 0.553650 0.000000
0.797394 0.553650 0.000000
0.819214 0.553650 0.000000
0.840698 0.553650 0.000000
0.861755 0.553650 0.000000
0.882446 0.553650 0.000000
0.902802 0.553650 0.000000
0.922852 0.553650 0.000000
0.942535 0.553650 0.000000
0.961975 0.553650 0.000000
0.981110 0.553650 0.000000
1.000000 0.553650 0.000000
0.000000 0.597717 0.000000
0.100128 0.597717 0.000000
0.185944 0.597717 0.000000
0.254456 0.597717 0.000000
0.304077 0.597717 0.000000
0.346161 0.597717 0.000000
0.384888 0.597717 0.000000
0.420990 0.597717 0.000000
0.454956 0.597717 0.000000
0.487213 0.597717 0.000000
0.517975 0.597717 0.000000
0.547516 0.597717 0.000000
0.575928 0.597717 0.000000
0.603333 0.597717 0.000000
0.629913 0.597717 0.000000
0.655670 0.597717 0.000000
0.680786 0.597717 0.000000
0.705231 0.597717 0.000000
0.729034 0.597717 0.000000
0.752319 0.597717 0.000000
0.775085 0.597717 0.000000
0.797394 0.597717 0.000000
0.819214 0.597717 0.000000
0.840698 0.597717 0.000000
0.861755 0.597717 0.000000
0.882446 0.597717 0.000000
0.902802 0.597717 0.000000
0.922852 0.597717 0.000000
0.942535 0.597717 0.000000
0.961975 0.597717 0.000000
0.981110 0.597717 0.000000
1.000000 0.597717 0.000000
0.000000 0.643219 0.000000
0.100128 0.643219 0.000000
0.185944 0.643219 0.000000
0.254456 0.643219 0.000000
0.304077 0.643219 0.000000
0.346161 0.643219 0.000000
0.384888 0.643219 0.000000
0.420990 0.643219 0.000000
0.454956 0.643219 0.000000
0.487213 0.643219 0.000000
0.517975 0.643219 0.000000
0.547516 0.643219 0.000000
0.575928 0.643219 0.000000
0.603333 0.643219 0.000000
0.629913 0.643219 0.000000
0.655670 0.643219 0.000000
0.680786 0.643219 0.000000
0.705231 0.643219 0.000000
0.729034 0.643219 0.000000
0.752319 0.643219 0.000000
0.775085 0.643219 0.000000
0.797394 0.643219 0.000000
0.819214 0.643219 0.000000
0.840698 0.643219 0.000000
0.861755 0.643219 0.000000
0.882446 0.643219 0.000000
0.902802 0.643219 0.000000
0.922852 0.643219 0.000000
0.942535 0.643219 0.000000
0.961975 0.643219 0.000000
0.981110 0.643219 0.000000
1.000000 0.643219 0.000000
0.000000 0.690125 0.000000
0.100128 0.690125 0.000000
0.185944 0.690125 0.000000
0.254456 0.690125 0.000000
0.304077 0.690125 0.000000
0.346161 0.690125 0.000000
0.384888 0.690125 0.000000
0.420990 0.690125 0.000000
0.454956 0.690125 0.000000
0.487213 0.690125 0.000000
0.517975 0.690125 0.000000
0.547516 0.690125 0.000000
0.575928 0.690125 0.000000
0.603333 0.690125 0.000000
0.629913 0.690125 0.000000
0.655670 0.690125 0.000000
0.680786 0.690125 0.000000
0.705231 0.690125 0.000000
0.729034 0.690125 0.000000
0.752319 0.690125 0.000000
0.775085 0.690125 0.000000
0.797394 0.690125 0.000000
0.819214 0.690125 0.000000
0.840698 0.690125 0.000000
0.861755 0.690125 0.000000
0.882446 0.690125 0.000000
0.902802 0.690125 0.000000
0.922852 0.690125 0.000000
0.942535 0.690125 0.000000
0.961975 0.690125 0.000000
0.981110 0.690125 0.000000
1.000000 0.690125 0.000000
0.000000 0.738434 0.000000
0.100128 0.738434 0.000000
0.185944 0.738434 0.000000
0.254456 0.738434 0.000000
0.304077 0.738434 0.000000
0.346161 0.738434 0.000000
0.384888 0.738434 0.000000
0.420990 0.738434 0.000000
0.454956 0.738434 0.000000
0.487213 0.738434 0.000000
0.517975 0.738434 0.000000
0.547516 0.738434 0.000000
0.575928 0.738434 0.000000
0.603333 0.738434 0.000000
0.629913 0.738434 0.000000
0.655670 0.738434 0.000000
0.680786 0.738434 0.000000
0.705231 0.738434 0.000000
0.729034 0.738434 0.000000
0.752319 0.738434 0.000000
0.775085 0.738434 0.000000
0.797394 0.738434 0.000000
0.819214 0.738434 0.000000
0.840698 0.738434 0.000000
0.861755 0.738434 0.000000
0.882446 0.738434 0.000000
0.902802 0.738434 0.000000
0.922852 0.738434 0.000000
0.942535 0.738434 0.000000
0.961975 0.738434 0.000000
0.981110 0.738434 0.000000
1.000000 0.738434 0.000000
0.000000 0.788055 0.000000
0.100128 0.788055 0.000000
0.185944 0.788055 0.000000
0.254456 0.788055 0.000000
0.304077 0.788055 0.000000
0.346161 0.788055 0.000000
0.384888 0.788055 0.000000
0.420990 0.788055 0.000000
0.454956 0.788055 0.000000
0.487213 0.788055 0.000000
0.517975 0.788055 0.000000
0.547516 0.788055 0.000000
0.575928 0.788055 0.000000
0.603333 0.788055 0.000000
0.629913 0.788055 0.000000
0.655670 0.788055 0.000000
0.680786 0.788055 0.000000
0.705231 0.788055 0.000000
