res/luts/Toasty.CUBE
#Created by: Adobe Photoshop Export Color Lookup Plugin
TITLE "Toasty"
#LUT size
LUT_3D_SIZE 5
#data domain
#LUT data points
DOMAIN_MIN 0.000000 0.000000 0.000000
DOMAIN_MAX 0.903226 0.903226 0.903226
0.000000 0.000000 0.000000
0.326660 0.000000 0.000000
0.550049 0.000000 0.000000
0.746155 0.000000 0.000000
0.926331 0.000000 0.000000
0.000000 0.239105 0.000000
0.326660 0.239105 0.000000
0.550049 0.239105 0.000000
0.746155 0.239105 0.000000
0.926331 0.239105 0.000000
0.000000 0.465607 0.000000
0.326660 0.465607 0.000000
0.550049 0.465607 0.000000
0.746155 0.465607 0.000000
0.926331 0.465607 0.000000
0.000000 0.687653 0.000000
0.326660 0.687653 0.000000
0.550049 0.687653 0.000000
0.746155 0.687653 0.000000
0.926331 0.687653 0.000000
0.000000 0.906769 0.000000
0.326660 0.906769 0.000000
0.550049 0.906769 0.000000
0.746155 0.906769 0.000000
0.926331 0.906769 0.000000
0.000000 0.000000 0.137482
0.326660 0.000000 0.137482
0.550049 0.000000 0.137482
0.746155 0.000000 0.137482
0.926331 0.000000 0.137482
0.000000 0.239105 0.137482
0.326660 0.239105 0.137482
0.550049 0.239105 0.137482
0.746155 0.239105 0.137482
0.926331 0.239105 0.137482
0.000000 0.465607 0.137482
0.326660 0.465607 0.137482
0.550049 0.465607 0.137482
0.746155 0.465607 0.137482
0.926331 0.465607 0.137482
0.000000 0.687653 0.137482
0.326660 0.687653 0.137482
0.550049 0.687653 0.137482
0.746155 0.687653 0.137482
0.926331 0.687653 0.137482
0.000000 0.906769 0.137482
0.326660 0.906769 0.137482
0.550049 0.906769 0.137482
0.746155 0.906769 0.137482
0.926331 0.906769 0.137482
0.000000 0.000000 0.346466
0.326660 0.000000 0.346466
0.550049 0.000000 0.346466
0.746155 0.000000 0.346466
0.926331 0.000000 0.346466
0.000000 0.239105 0.346466
0.326660 0.239105 0.346466
0.550049 0.239105 0.346466
0.746155 0.239105 0.346466
0.926331 0.239105 0.346466
0.000000 0.465607 0.346466
0.326660 0.465607 0.346466
0.550049 0.465607 0.346466
0.746155 0.465607 0.346466
0.926331 0.465607 0.346466
0.000000 0.687653 0.346466
0.326660 0.687653 0.346466
0.550049 0.687653 0.346466
0.746155 0.687653 0.346466
0.926331 0.687653 0.346466
0.000000 0.906769 0.346466
0.326660 0.906769 0.346466
0.550049 0.906769 0.346466
0.746155 0.906769 0.346466
0.926331 0.906769 0.346466
0.000000 0.000000 0.594971
0.326660 0.000000 0.594971
0.550049 0.000000 0.594971
0.746155 0.000000 0.594971
0.926331 0.000000 0.594971
0.000000 0.239105 0.594971
0.326660 0.239105 0.594971
0.550049 0.239105 0.594971
0.746155 0.239105 0.594971
0.926331 0.239105 0.594971
0.000000 0.465607 0.594971
0.326660 0.465607 0.594971
0.550049 0.465607 0.594971
0.746155 0.465607 0.594971
0.926331 0.465607 0.594971
0.000000 0.687653 0.594971
0.326660 0.687653 0.594971
0.550049 0.687653 0.594971
0.746155 0.687653 0.594971
0.926331 0.687653 0.594971
0.000000 0.906769 0.594971
0.326660 0.906769 0.594971
0.550049 0.906769 0.594971
0.746155 0.906769 0.594971
0.926331 0.906769 0.594971
0.000000 0.000000 0.873108
0.326660 0.000000 0.873108
0.550049 0.000000 0.873108
0.746155 0.000000 0.873108
0.926331 0.000000 0.873108
0.000000 0.239105 0.873108
0.326660 0.239105 0.873108
0.550049 0.239105 0.873108
0.746155 0.239105 0.873108
0.926331 0.239105 0.873108
0.000000 0.465607 0.873108
0.326660 0.465607 0.873108
0.550049 0.465607 0.873108
0.746155 0.465607 0.873108
0.926331 0.465607 0.873108
0.000000 0.687653 0.873108
0.326660 0.687653 0.873108
0.550049 0.687653 0.873108
0.746155 0.687653 0.873108
0.926331 0.687653 0.873108
0.000000 0.906769 0.873108
0.326660 0.906769 0.873108
0.550049 0.906769 0.873108
0.746155 0.906769 0.873108
0.926331 0.906769 0.873108
