res/luts/Toasty.CUBE
#Created by: Adobe Photoshop Export Color Lookup Plugin
TITLE "Toasty"
#LUT size
LUT_3D_SIZE 32
#data domain
DOMAIN_MIN 0.0 0.0 0.0
DOMAIN_MAX 1.0 1.0 1.0
#LUT data points
0.000000 0.000000 0.000000
0.073547 0.000000 0.000000
0.127350 0.000000 0.000000
0.172729 0.000000 0.000000
0.214447 0.000000 0.000000
0.253632 0.000000 0.000000
0.290894 0.000000 0.000000
0.326660 0.000000 0.000000
0.361145 0.000000 0.000000
0.394592 0.000000 0.000000
0.427124 0.000000 0.000000
0.458862 0.000000 0.000000
0.489868 0.000000 0.000000
0.520264 0.000000 0.000000
0.550049 0.000000 0.000000
0.579346 0.000000 0.000000
0.608185 0.000000 0.000000
0.636566 0.000000 0.000000
0.664520 0.000000 0.000000
0.692078 0.000000 0.000000
0.719269 0.000000 0.000000
0.746155 0.000000 0.000000
0.772705 0.000000 0.000000
0.798981 0.000000 0.000000
0.824951 0.000000 0.000000
0.850677 0.000000 0.000000
0.876129 0.000000 0.000000
0.901337 0.000000 0.000000
0.926331 0.000000 0.000000
0.951111 0.000000 0.000000
0.975647 0.000000 0.000000
1.000000 0.000000 0.000000
0.000000 0.036804 0.000000
0.073547 0.036804 0.000000
0.127350 0.036804 0.000000
0.172729 0.036804 0.000000
0.214447 0.036804 0.000000
0.253632 0.036804 0.000000
0.290894 0.036804 0.000000
0.326660 0.036804 0.000000
0.361145 0.036804 0.000000
0.394592 0.036804 0.000000
0.427124 0.036804 0.000000
0.458862 0.036804 0.000000
0.489868 0.036804 0.000000
0.520264 0.036804 0.000000
0.550049 0.036804 0.000000
0.579346 0.036804 0.000000
0.608185 0.036804 0.000000
0.636566 0.036804 0.000000
0.664520 0.036804 0.000000
0.692078 0.036804 0.000000
0.719269 0.036804 0.000000
0.746155 0.036804 0.000000
0.772705 0.036804 0.000000
0.798981 0.036804 0.000000
0.824951 0.036804 0.000000
0.850677 0.036804 0.000000
0.876129 0.036804 0.000000
0.901337 0.036804 0.000000
0.926331 0.036804 0.000000
0.951111 0.036804 0.000000
0.975647 0.036804 0.000000
1.000000 0.036804 0.000000
0.000000 0.071686 0.000000
0.073547 0.071686 0.000000
0.127350 0.071686 0.000000
0.172729 0.071686 0.000000
0.214447 0.071686 0.000000
0.253632 0.071686 0.000000
0.290894 0.071686 0.000000
0.326660 0.071686 0.000000
0.361145 0.071686 0.000000
0.394592 0.071686 0.000000
0.427124 0.071686 0.000000
0.458862 0.071686 0.000000
0.489868 0.071686 0.000000
0.520264 0.071686 0.000000
0.550049 0.071686 0.000000
0.579346 0.071686 0.000000
0.608185 0.071686 0.000000
0.636566 0.071686 0.000000
0.664520 0.071686 0.000000
0.692078 0.071686 0.000000
0.719269 0.071686 0.000000
0.746155 0.071686 0.000000
0.772705 0.071686 0.000000
0.798981 0.071686 0.000000
0.824951 0.071686 0.000000
0.850677 0.071686 0.000000
0.876129 0.071686 0.000000
0.901337 0.071686 0.000000
0.926331 0.071686 0.000000
0.951111 0.071686 0.000000
0.975647 0.071686 0.000000
1.000000 0.071686 0.000000
0.000000 0.105865 0.000000
0.073547 0.105865 0.000000
0.127350 0.105865 0.000000
0.172729 0.105865 0.000000
0.214447 0.105865 0.000000
0.253632 0.105865 0.000000
0.290894 0.105865 0.000000
0.326660 0.105865 0.000000
0.361145 0.105865 0.000000
0.394592 0.105865 0.000000
0.427124 0.105865 0.000000
0.458862 0.105865 0.000000
0.489868 0.105865 0.000000
0.520264 0.105865 0.000000
0.550049 0.105865 0.000000
0.579346 0.105865 0.000000
0.608185 0.105865 0.000000
0.636566 0.105865 0.000000
0.664520 0.105865 0.000000
0.692078 0.105865 0.000000
0.719269 0.105865 0.000000
0.746155 0.105865 0.000000
0.772705 0.105865 0.000000
0.798981 0.105865 0.000000
0.824951 0.105865 0.000000
0.850677 0.105865 0.000000
0.876129 0.105865 0.000000
0.901337 0.105865 0.000000
0.926331 0.105865 0.000000
0.951111 0.105865 0.000000
0.975647 0.105865 0.000000
1.000000 0.105865 0.000000
0.000000 0.139618 0.000000
0.073547 0.139618 0.000000
0.127350 0.139618 0.000000
0.172729 0.139618 0.000000
0.214447 0.139618 0.000000
0.253632 0.139618 0.000000
0.290894 0.139618 0.000000
0.326660 0.139618 0.000000
0.361145 0.139618 0.000000
0.394592 0.139618 0.000000
0.427124 0.139618 0.000000
0.458862 0.139618 0.000000
0.489868 0.139618 0.000000
0.520264 0.139618 0.000000
0.550049 0.139618 0.000000
0.579346 0.139618 0.000000
0.608185 0.139618 0.000000
0.636566 0.139618 0.000000
0.664520 0.139618 0.000000
0.692078 0.139618 0.000000
0.719269 0.139618 0.000000
0.746155 0.139618 0.000000
0.772705 0.139618 0.000000
0.798981 0.139618 0.000000
0.824951 0.139618 0.000000
0.850677 0.139618 0.000000
0.876129 0.139618 0.000000
0.901337 0.139618 0.000000
0.926331 0.139618 0.000000
0.951111 0.139618 0.000000
0.975647 0.139618 0.000000
1.000000 0.139618 0.000000
0.000000 0.173004 0.000000
0.073547 0.173004 0.000000
0.127350 0.173004 0.000000
0.172729 0.173004 0.000000
0.214447 0.173004 0.000000
0.253632 0.173004 0.000000
0.290894 0.173004 0.000000
0.326660 0.173004 0.000000
0.361145 0.173004 0.000000
0.394592 0.173004 0.000000
0.427124 0.173004 0.000000
0.458862 0.173004 0.000000
0.489868 0.173004 0.000000
0.520264 0.173004 0.000000
0.550049 0.173004 0.000000
0.579346 0.173004 0.000000
0.608185 0.173004 0.000000
0.636566 0.173004 0.000000
0.664520 0.173004 0.000000
0.692078 0.173004 0.000000
0.719269 0.173004 0.000000
0.746155 0.173004 0.000000
0.772705 0.173004 0.000000
0.798981 0.173004 0.000000
0.824951 0.173004 0.000000
0.850677 0.173004 0.000000
0.876129 0.173004 0.000000
0.901337 0.173004 0.000000
0.926331 0.173004 0.000000
0.951111 0.173004 0.000000
0.975647 0.173004 0.000000
1.000000 0.173004 0.000000
0.000000 0.206177 0.000000
0.073547 0.206177 0.000000
0.127350 0.206177 0.000000
0.172729 0.206177 0.000000
0.214447 0.206177 0.000000
0.253632 0.206177 0.000000
0.290894 0.206177 0.000000
0.326660 0.206177 0.000000
0.361145 0.206177 0.000000
0.394592 0.206177 0.000000
0.427124 0.206177 0.000000
0.458862 0.206177 0.000000
0.489868 0.206177 0.000000
0.520264 0.206177 0.000000
0.550049 0.206177 0.000000
0.579346 0.206177 0.000000
0.608185 0.206177 0.000000
0.636566 0.206177 0.000000
0.664520 0.206177 0.000000
0.692078 0.206177 0.000000
0.719269 0.206177 0.000000
0.746155 0.206177 0.000000
0.772705 0.206177 0.000000
0.798981 0.206177 0.000000
0.824951 0.206177 0.000000
0.850677 0.206177 0.000000
0.876129 0.206177 0.000000
0.901337 0.206177 0.000000
0.926331 0.206177 0.000000
0.951111 0.206177 0.000000
0.975647 0.206177 0.000000
1.000000 0.206177 0.000000
0.000000 0.239105 0.000000
0.073547 0.239105 0.000000
0.127350 0.239105 0.000000
0.172729 0.239105 0.000000
0.214447 0.239105 0.000000
0.253632 0.239105 0.000000
0.290894 0.239105 0.000000
0.326660 0.239105 0.000000
0.361145 0.239105 0.000000
0.394592 0.239105 0.000000
0.427124 0.239105 0.000000
0.458862 0.239105 0.000000
0.489868 0.239105 0.000000
0.520264 0.239105 0.000000
0.550049 0.239105 0.000000
0.579346 0.239105 0.000000
0.608185 0.239105 0.000000
0.636566 0.239105 0.000000
0.664520 0.239105 0.000000
0.692078 0.239105 0.000000
0.719269 0.239105 0.000000
0.746155 0.239105 0.000000
0.772705 0.239105 0.000000
0.798981 0.239105 0.000000
0.824951 0.239105 0.000000
0.850677 0.239105 0.000000
0.876129 0.239105 0.000000
0.901337 0.239105 0.000000
0.926331 0.239105 0.000000
0.951111 0.239105 0.000000
0.975647 0.239105 0.000000
1.000000 0.239105 0.000000
0.000000 0.271851 0.000000
0.073547 0.271851 0.000000
0.127350 0.271851 0.000000
0.172729 0.271851 0.000000
0.214447 0.271851 0.000000
0.253632 0.271851 0.000000
0.290894 0.271851 0.000000
0.326660 0.271851 0.000000
0.361145 0.271851 0.000000
0.394592 0.271851 0.000000
0.427124 0.271851 0.000000
0.458862 0.271851 0.000000
0.489868 0.271851 0.000000
0.520264 0.271851 0.000000
0.550049 0.271851 0.000000
0.579346 0.271851 0.000000
0.608185 0.271851 0.000000
0.636566 0.271851 0.000000
0.664520 0.271851 0.000000
0.692078 0.271851 0.000000
0.719269 0.271851 0.000000
0.746155 0.271851 0.000000
0.772705 0.271851 0.000000
0.798981 0.271851 0.000000
0.824951 0.271851 0.000000
0.850677 0.271851 0.000000
0.876129 0.271851 0.000000
0.901337 0.271851 0.000000
0.926331 0.271851 0.000000
0.951111 0.271851 0.000000
0.975647 0.271851 0.000000
1.000000 0.271851 0.000000
0.000000 0.304443 0.000000
0.073547 0.304443 0.000000
0.127350 0.304443 0.000000
0.172729 0.304443 0.000000
0.214447 0.304443 0.000000
0.253632 0.304443 0.000000
0.290894 0.304443 0.000000
0.326660 0.304443 0.000000
0.361145 0.304443 0.000000
0.394592 0.304443 0.000000
0.427124 0.304443 0.000000
0.458862 0.304443 0.000000
0.489868 0.304443 0.000000
0.520264 0.304443 0.000000
0.550049 0.304443 0.000000
0.579346 0.304443 0.000000
0.608185 0.304443 0.000000
0.636566 0.304443 0.000000
0.664520 0.304443 0.000000
0.692078 0.304443 0.000000
0.719269 0.304443 0.000000
0.746155 0.304443 0.000000
0.772705 0.304443 0.000000
0.798981 0.304443 0.000000
0.824951 0.304443 0.000000
0.850677 0.304443 0.000000
0.876129 0.304443 0.000000
0.901337 0.304443 0.000000
0.926331 0.304443 0.000000
0.951111 0.304443 0.000000
0.975647 0.304443 0.000000
1.000000 0.304443 0.000000
0.000000 0.336914 0.000000
0.073547 0.336914 0.000000
0.127350 0.336914 0.000000
0.172729 0.336914 0.000000
0.214447 0.336914 0.000000
0.253632 0.336914 0.000000
0.290894 0.336914 0.000000
0.326660 0.336914 0.000000
0.361145 0.336914 0.000000
0.394592 0.336914 0.000000
0.427124 0.336914 0.000000
0.458862 0.336914 0.000000
0.489868 0.336914 0.000000
0.520264 0.336914 0.000000
0.550049 0.336914 0.000000
0.579346 0.336914 0.000000
0.608185 0.336914 0.000000
0.636566 0.336914 0.000000
0.664520 0.336914 0.000000
0.692078 0.336914 0.000000
0.719269 0.336914 0.000000
0.746155 0.336914 0.000000
0.772705 0.336914 0.000000
0.798981 0.336914 0.000000
0.824951 0.336914 0.000000
0.850677 0.336914 0.000000
0.876129 0.336914 0.000000
0.901337 0.336914 0.000000
0.926331 0.336914 0.000000
0.951111 0.336914 0.000000
0.975647 0.336914 0.000000
1.000000 0.336914 0.000000
0.000000 0.369263 0.000000
0.073547 0.369263 0.000000
0.127350 0.369263 0.000000
0.172729 0.369263 0.000000
0.214447 0.369263 0.000000
0.253632 0.369263 0.000000
0.290894 0.369263 0.000000
0.326660 0.369263 0.000000
0.361145 0.369263 0.000000
0.394592 0.369263 0.000000
0.427124 0.369263 0.000000
0.458862 0.369263 0.000000
0.489868 0.369263 0.000000
0.520264 0.369263 0.000000
0.550049 0.369263 0.000000
0.579346 0.369263 0.000000
0.608185 0.369263 0.000000
0.636566 0.369263 0.000000
0.664520 0.369263 0.000000
0.692078 0.369263 0.000000
0.719269 0.369263 0.000000
0.746155 0.369263 0.000000
0.772705 0.369263 0.000000
0.798981 0.369263 0.000000
0.824951 0.369263 0.000000
0.850677 0.369263 0.000000
0.876129 0.369263 0.000000
0.901337 0.369263 0.000000
0.926331 0.369263 0.000000
0.951111 0.369263 0.000000
0.975647 0.369263 0.000000
1.000000 0.369263 0.000000
0.000000 0.401489 0.000000
0.073547 0.401489 0.000000
0.127350 0.401489 0.000000
0.172729 0.401489 0.000000
0.214447 0.401489 0.000000
0.253632 0.401489 0.000000
0.290894 0.401489 0.000000
0.326660 0.401489 0.000000
0.361145 0.401489 0.000000
0.394592 0.401489 0.000000
0.427124 0.401489 0.000000
0.458862 0.401489 0.000000
0.489868 0.401489 0.000000
0.520264 0.401489 0.000000
0.550049 0.401489 0.000000
0.579346 0.401489 0.000000
0.608185 0.401489 0.000000
0.636566 0.401489 0.000000
0.664520 0.401489 0.000000
0.692078 0.401489 0.000000
0.719269 0.401489 0.000000
0.746155 0.401489 0.000000
0.772705 0.401489 0.000000
0.798981 0.401489 0.000000
0.824951 0.401489 0.000000
0.850677 0.401489 0.000000
0.876129 0.401489 0.000000
0.901337 0.401489 0.000000
0.926331 0.401489 0.000000
0.951111 0.401489 0.000000
0.975647 0.401489 0.000000
1.000000 0.401489 0.000000
0.000000 0.433594 0.000000
0.073547 0.433594 0.000000
0.127350 0.433594 0.000000
0.172729 0.433594 0.000000
0.214447 0.433594 0.000000
0.253632 0.433594 0.000000
0.290894 0.433594 0.000000
0.326660 0.433594 0.000000
0.361145 0.433594 0.000000
0.394592 0.433594 0.000000
0.427124 0.433594 0.000000
0.458862 0.433594 0.000000
0.489868 0.433594 0.000000
0.520264 0.433594 0.000000
0.550049 0.433594 0.000000
0.579346 0.433594 0.000000
0.608185 0.433594 0.000000
0.636566 0.433594 0.000000
0.664520 0.433594 0.000000
0.692078 0.433594 0.000000
0.719269 0.433594 0.000000
0.746155 0.433594 0.000000
0.772705 0.433594 0.000000
0.798981 0.433594 0.000000
0.824951 0.433594 0.000000
0.850677 0.433594 0.000000
0.876129 0.433594 0.000000
0.901337 0.433594 0.000000
0.926331 0.433594 0.000000
0.951111 0.433594 0.000000
0.975647 0.433594 0.000000
1.000000 0.433594 0.000000
0.000000 0.465607 0.000000
0.073547 0.465607 0.000000
0.127350 0.465607 0.000000
0.172729 0.465607 0.000000
0.214447 0.465607 0.000000
0.253632 0.465607 0.000000
0.290894 0.465607 0.000000
0.326660 0.465607 0.000000
0.361145 0.465607 0.000000
0.394592 0.465607 0.000000
0.427124 0.465607 0.000000
0.458862 0.465607 0.000000
0.489868 0.465607 0.000000
0.520264 0.465607 0.000000
0.550049 0.465607 0.000000
0.579346 0.465607 0.000000
0.608185 0.465607 0.000000
0.636566 0.465607 0.000000
0.664520 0.465607 0.000000
0.692078 0.465607 0.000000
0.719269 0.465607 0.000000
0.746155 0.465607 0.000000
0.772705 0.465607 0.000000
0.798981 0.465607 0.000000
0.824951 0.465607 0.000000
0.850677 0.465607 0.000000
0.876129 0.465607 0.000000
0.901337 0.465607 0.000000
0.926331 0.465607 0.000000
0.951111 0.465607 0.000000
0.975647 0.465607 0.000000
1.000000 0.465607 0.000000
0.000000 0.497559 0.000000
0.073547 0.497559 0.000000
0.127350 0.497559 0.000000
0.172729 0.497559 0.000000
0.214447 0.497559 0.000000
0.253632 0.497559 0.000000
0.290894 0.497559 0.000000
0.326660 0.497559 0.000000
0.361145 0.497559 0.000000
0.394592 0.497559 0.000000
0.427124 0.497559 0.000000
0.458862 0.497559 0.000000
0.489868 0.497559 0.000000
0.520264 0.497559 0.000000
0.550049 0.497559 0.000000
0.579346 0.497559 0.000000
0.608185 0.497559 0.000000
0.636566 0.497559 0.000000
0.664520 0.497559 0.000000
0.692078 0.497559 0.000000
0.719269 0.497559 0.000000
0.746155 0.497559 0.000000
0.772705 0.497559 0.000000
0.798981 0.497559 0.000000
0.824951 0.497559 0.000000
0.850677 0.497559 0.000000
0.876129 0.497559 0.000000
0.901337 0.497559 0.000000
0.926331 0.497559 0.000000
0.951111 0.497559 0.000000
0.975647 0.497559 0.000000
1.000000 0.497559 0.000000
0.000000 0.529449 0.000000
0.073547 0.529449 0.000000
0.127350 0.529449 0.000000
0.172729 0.529449 0.000000
0.214447 0.529449 0.000000
0.253632 0.529449 0.000000
0.290894 0.529449 0.000000
0.326660 0.529449 0.000000
0.361145 0.529449 0.000000
0.394592 0.529449 0.000000
0.427124 0.529449 0.000000
0.458862 0.529449 0.000000
0.489868 0.529449 0.000000
0.520264 0.529449 0.000000
0.550049 0.529449 0.000000
0.579346 0.529449 0.000000
0.608185 0.529449 0.000000
0.636566 0.529449 0.000000
0.664520 0.529449 0.000000
0.692078 0.529449 0.000000
0.719269 0.529449 0.000000
0.746155 0.529449 0.000000
0.772705 0.529449 0.000000
0.798981 0.529449 0.000000
0.824951 0.529449 0.000000
0.850677 0.529449 0.000000
0.876129 0.529449 0.000000
0.901337 0.529449 0.000000
0.926331 0.529449 0.000000
0.951111 0.529449 0.000000
0.975647 0.529449 0.000000
1.000000 0.529449 0.000000
0.000000 0.561218 0.000000
0.073547 0.561218 0.000000
0.127350 0.561218 0.000000
0.172729 0.561218 0.000000
0.214447 0.561218 0.000000
0.253632 0.561218 0.000000
0.290894 0.561218 0.000000
0.326660 0.561218 0.000000
0.361145 0.561218 0.000000
0.394592 0.561218 0.000000
0.427124 0.561218 0.000000
0.458862 0.561218 0.000000
0.489868 0.561218 0.000000
0.520264 0.561218 0.000000
0.550049 0.561218 0.000000
0.579346 0.561218 0.000000
0.608185 0.561218 0.000000
0.636566 0.561218 0.000000
0.664520 0.561218 0.000000
0.692078 0.561218 0.000000
0.719269 0.561218 0.000000
0.746155 0.561218 0.000000
0.772705 0.561218 0.000000
0.798981 0.561218 0.000000
0.824951 0.561218 0.000000
0.850677 0.561218 0.000000
0.876129 0.561218 0.000000
0.901337 0.561218 0.000000
0.926331 0.561218 0.000000
0.951111 0.561218 0.000000
0.975647 0.561218 0.000000
1.000000 0.561218 0.000000
0.000000 0.592926 0.000000
0.073547 0.592926 0.000000
0.127350 0.592926 0.000000
0.172729 0.592926 0.000000
0.214447 0.592926 0.000000
0.253632 0.592926 0.000000
0.290894 0.592926 0.000000
0.326660 0.592926 0.000000
0.361145 0.592926 0.000000
0.394592 0.592926 0.000000
0.427124 0.592926 0.000000
0.458862 0.592926 0.000000
0.489868 0.592926 0.000000
0.520264 0.592926 0.000000
0.550049 0.592926 0.000000
0.579346 0.592926 0.000000
0.608185 0.592926 0.000000
0.636566 0.592926 0.000000
0.664520 0.592926 0.000000
0.692078 0.592926 0.000000
0.719269 0.592926 0.000000
0.746155 0.592926 0.000000
0.772705 0.592926 0.000000
0.798981 0.592926 0.000000
0.824951 0.592926 0.000000
0.850677 0.592926 0.000000
0.876129 0.592926 0.000000
0.901337 0.592926 0.000000
0.926331 0.592926 0.000000
0.951111 0.592926 0.000000
0.975647 0.592926 0.000000
1.000000 0.592926 0.000000
0.000000 0.624573 0.000000
0.073547 0.624573 0.000000
0.127350 0.624573 0.000000
0.172729 0.624573 0.000000
0.214447 0.624573 0.000000
0.253632 0.624573 0.000000
0.290894 0.624573 0.000000
0.326660 0.624573 0.000000
0.361145 0.624573 0.000000
0.394592 0.624573 0.000000
0.427124 0.624573 0.000000
0.458862 0.624573 0.000000
0.489868 0.624573 0.000000
0.520264 0.624573 0.000000
0.550049 0.624573 0.000000
0.579346 0.624573 0.000000
0.608185 0.624573 0.000000
0.636566 0.624573 0.000000
0.664520 0.624573 0.000000
0.692078 0.624573 0.000000
0.719269 0.624573 0.000000
0.746155 0.624573 0.000000
0.772705 0.624573 0.000000
0.798981 0.624573 0.000000
0.824951 0.624573 0.000000
0.850677 0.624573 0.000000
0.876129 0.624573 0.000000
0.901337 0.624573 0.000000
0.926331 0.624573 0.000000
0.951111 0.624573 0.000000
0.975647 0.624573 0.000000
1.000000 0.624573 0.000000
0.000000 0.656128 0.000000
0.073547 0.656128 0.000000
0.127350 0.656128 0.000000
0.172729 0.656128 0.000000
0.214447 0.656128 0.000000
0.253632 0.656128 0.000000
0.290894 0.656128 0.000000
0.326660 0.656128 0.000000
0.361145 0.656128 0.000000
0.394592 0.656128 0.000000
0.427124 0.656128 0.000000
0.458862 0.656128 0.000000
0.489868 0.656128 0.000000
0.520264 0.656128 0.000000
0.550049 0.656128 0.000000
0.579346 0.656128 0.000000
0.608185 0.656128 0.000000
0.636566 0.656128 0.000000
0.664520 0.656128 0.000000
0.692078 0.656128 0.000000
0.719269 0.656128 0.000000
0.746155 0.656128 0.000000
0.772705 0.656128 0.000000
0.798981 0.656128 0.000000
0.824951 0.656128 0.000000
0.850677 0.656128 0.000000
0.876129 0.656128 0.000000
0.901337 0.656128 0.000000
0.926331 0.656128 0.000000
0.951111 0.656128 0.000000
0.975647 0.656128 0.000000
1.000000 0.656128 0.000000
0.000000 0.687653 0.000000
0.073547 0.687653 0.000000
0.127350 0.687653 0.000000
0.172729 0.687653 0.000000
0.214447 0.687653 0.000000
0.253632 0.687653 0.000000
0.290894 0.687653 0.000000
0.326660 0.687653 0.000000
0.361145 0.687653 0.000000
0.394592 0.687653 0.000000
0.427124 0.687653 0.000000
0.458862 0.687653 0.000000
0.489868 0.687653 0.000000
0.520264 0.687653 0.000000
0.550049 0.687653 0.000000
0.579346 0.687653 0.000000
0.608185 0.687653 0.000000
0.636566 0.687653 0.000000
0.664520 0.687653 0.000000
0.692078 0.687653 0.000000
0.719269 0.687653 0.000000
0.746155 0.687653 0.000000
0.772705 0.687653 0.000000
0.798981 0.687653 0.000000
0.824951 0.687653 0.000000
0.850677 0.687653 0.000000
0.876129 0.687653 0.000000
0.901337 0.687653 0.000000
0.926331 0.687653 0.000000
0.951111 0.687653 0.000000
0.975647 0.687653 0.000000
1.000000 0.687653 0.000000
0.000000 0.719116 0.000000
0.073547 0.719116 0.000000
0.127350 0.719116 0.000000
0.172729 0.719116 0.000000
0.214447 0.719116 0.000000
0.253632 0.719116 0.000000
0.290894 0.719116 0.000000
0.326660 0.719116 0.000000
0.361145 0.719116 0.000000
0.394592 0.719116 0.000000
0.427124 0.719116 0.000000
0.458862 0.719116 0.000000
0.489868 0.719116 0.000000
0.520264 0.719116 0.000000
0.550049 0.719116 0.000000
0.579346 0.719116 0.000000
0.608185 0.719116 0.000000
0.636566 0.719116 0.000000
0.664520 0.719116 0.000000
0.692078 0.719116 0.000000
0.719269 0.719116 0.000000
0.746155 0.719116 0.000000
0.772705 0.719116 0.000000
0.798981 0.719116 0.000000
0.824951 0.719116 0.000000
0.850677 0.719116 0.000000
0.876129 0.719116 0.000000
0.901337 0.719116 0.000000
0.926331 0.719116 0.000000
0.951111 0.719116 0.000000
0.975647 0.719116 0.000000
1.000000 0.719116 0.000000
0.000000 0.750519 0.000000
0.073547 0.750519 0.000000
0.127350 0.750519 0.000000
0.172729 0.750519 0.000000
0.214447 0.750519 0.000000
0.253632 0.750519 0.000000
0.290894 0.750519 0.000000
0.326660 0.750519 0.000000
0.361145 0.750519 0.000000
0.394592 0.750519 0.000000
0.427124 0.750519 0.000000
0.458862 0.750519 0.000000
0.489868 0.750519 0.000000
0.520264 0.750519 0.000000
0.550049 0.750519 0.000000
0.579346 0.750519 0.000000
0.608185 0.750519 0.000000
0.636566 0.750519 0.000000
0.664520 0.750519 0.000000
0.692078 0.750519 0.000000
0.719269 0.750519 0.000000
0.746155 0.750519 0.000000
0.772705 0.750519 0.000000
0.798981 0.750519 0.000000
0.824951 0.750519 0.000000
0.850677 0.750519 0.000000
0.876129 0.750519 0.000000
0.901337 0.750519 0.000000
0.926331 0.750519 0.000000
0.951111 0.750519 0.000000
0.975647 0.750519 0.000000
1.000000 0.750519 0.000000
0.000000 0.781860 0.000000
0.073547 0.781860 0.000000
0.127350 0.781860 0.000000
0.172729 0.781860 0.000000
0.214447 0.781860 0.000000
0.253632 0.781860 0.000000
0.290894 0.781860 0.000000
0.326660 0.781860 0.000000
0.361145 0.781860 0.000000
0.394592 0.781860 0.000000
0.427124 0.781860 0.000000
0.458862 0.781860 0.000000
0.489868 0.781860 0.000000
0.520264 0.781860 0.000000
0.550049 0.781860 0.000000
0.579346 0.781860 0.000000
0.608185 0.781860 0.000000
0.636566 0.781860 0.000000
0.664520 0.781860 0.000000
0.692078 0.781860 0.000000
0.719269 0.781860 0.000000
0.746155 0.781860 0.000000
0.772705 0.781860 0.000000
0.798981 0.781860 0.000000
0.824951 0.781860 0.000000
0.850677 0.781860 0.000000
0.876129 0.781860 0.000000
0.901337 0.781860 0.000000
0.926331 0.781860 0.000000
0.951111 0.781860 0.000000
0.975647 0.781860 0.000000
1.000000 0.781860 0.000000
0.000000 0.813171 0.000000
0.073547 0.813171 0.000000
0.127350 0.813171 0.000000
0.172729 0.813171 0.000000
0.214447 0.813171 0.000000
0.253632 0.813171 0.000000
0.290894 0.813171 0.000000
0.326660 0.813171 0.000000
0.361145 0.813171 0.000000
0.394592 0.813171 0.000000
0.427124 0.813171 0.000000
0.458862 0.813171 0.000000
0.489868 0.813171 0.000000
0.520264 0.813171 0.000000
0.550049 0.813171 0.000000
0.579346 0.813171 0.000000
0.608185 0.813171 0.000000
0.636566 0.813171 0.000000
0.664520 0.813171 0.000000
0.692078 0.813171 0.000000
0.719269 0.813171 0.000000
0.746155 0.813171 0.000000
0.772705 0.813171 0.000000
0.798981 0.813171 0.000000
0.824951 0.813171 0.000000
0.850677 0.813171 0.000000
0.876129 0.813171 0.000000
0.901337 0.813171 0.000000
0.926331 0.813171 0.000000
0.951111 0.813171 0.000000
0.975647 0.813171 0.000000
1.000000 0.813171 0.000000
0.000000 0.844421 0.000000
0.073547 0.844421 0.000000
0.127350 0.844421 0.000000
0.172729 0.844421 0.000000
0.214447 0.844421 0.000000
0.253632 0.844421 0.000000
0.290894 0.844421 0.000000
0.326660 0.844421 0.000000
0.361145 0.844421 0.000000
0.394592 0.844421 0.000000
0.427124 0.844421 0.000000
0.458862 0.844421 0.000000
0.489868 0.844421 0.000000
0.520264 0.844421 0.000000
0.550049 0.844421 0.000000
0.579346 0.844421 0.000000
0.608185 0.844421 0.000000
0.636566 0.844421 0.000000
0.664520 0.844421 0.000000
0.692078 0.844421 0.000000
0.719269 0.844421 0.000000
0.746155 0.844421 0.000000
0.772705 0.844421 0.000000
0.798981 0.844421 0.000000
0.824951 0.844421 0.000000
0.850677 0.844421 0.000000
0.876129 0.844421 0.000000
0.901337 0.844421 0.000000
0.926331 0.844421 0.000000
0.951111 0.844421 0.000000
0.975647 0.844421 0.000000
1.000000 0.844421 0.000000
0.000000 0.875610 0.000000
0.073547 0.875610 0.000000
0.127350 0.875610 0.000000
0.172729 0.875610 0.000000
0.214447 0.875610 0.000000
0.253632 0.875610 0.000000
0.290894 0.875610 0.000000
0.326660 0.875610 0.000000
0.361145 0.875610 0.000000
0.394592 0.875610 0.000000
0.427124 0.875610 0.000000
0.458862 0.875610 0.000000
0.489868 0.875610 0.000000
0.520264 0.875610 0.000000
0.550049 0.875610 0.000000
0.579346 0.875610 0.000000
0.608185 0.875610 0.000000
0.636566 0.875610 0.000000
