res/luts/Toasty.CUBE
#Created by: Adobe Photoshop Export Color Lookup Plugin
TITLE "Toasty"
#LUT size
LUT_3D_SIZE 8
#data domain
#LUT data points
DOMAIN_MIN 0.000000 0.000000 0.000000
DOMAIN_MAX 0.903226 0.903226 0.903226
0.000000 0.000000 0.000000
0.214447 0.000000 0.000000
0.361145 0.000000 0.000000
0.489868 0.000000 0.000000
0.608185 0.000000 0.000000
0.719269 0.000000 0.000000
0.824951 0.000000 0.000000
0.926331 0.000000 0.000000
0.000000 0.139618 0.000000
0.214447 0.139618 0.000000
0.361145 0.139618 0.000000
0.489868 0.139618 0.000000
0.608185 0.139618 0.000000
0.719269 0.139618 0.000000
0.824951 0.139618 0.000000
0.926331 0.139618 0.000000
0.000000 0.271851 0.000000
0.214447 0.271851 0.000000
0.361145 0.271851 0.000000
0.489868 0.271851 0.000000
0.608185 0.271851 0.000000
0.719269 0.271851 0.000000
0.824951 0.271851 0.000000
0.926331 0.271851 0.000000
0.000000 0.401489 0.000000
0.214447 0.401489 0.000000
0.361145 0.401489 0.000000
0.489868 0.401489 0.000000
0.608185 0.401489 0.000000
0.719269 0.401489 0.000000
0.824951 0.401489 0.000000
0.926331 0.401489 0.000000
0.000000 0.529449 0.000000
0.214447 0.529449 0.000000
0.361145 0.529449 0.000000
0.489868 0.529449 0.000000
0.608185 0.529449 0.000000
0.719269 0.529449 0.000000
0.824951 0.529449 0.000000
0.926331 0.529449 0.000000
0.000000 0.656128 0.000000
0.214447 0.656128 0.000000
0.361145 0.656128 0.000000
0.489868 0.656128 0.000000
0.608185 0.656128 0.000000
0.719269 0.656128 0.000000
0.824951 0.656128 0.000000
0.926331 0.656128 0.000000
0.000000 0.781860 0.000000
0.214447 0.781860 0.000000
0.361145 0.781860 0.000000
0.489868 0.781860 0.000000
0.608185 0.781860 0.000000
0.719269 0.781860 0.000000
0.824951 0.781860 0.000000
0.926331 0.781860 0.000000
0.000000 0.906769 0.000000
0.214447 0.906769 0.000000
0.361145 0.906769 0.000000
0.489868 0.906769 0.000000
0.608185 0.906769 0.000000
0.719269 0.906769 0.000000
0.824951 0.906769 0.000000
0.926331 0.906769 0.000000
0.000000 0.000000 0.065216
0.214447 0.000000 0.065216
0.361145 0.000000 0.065216
0.489868 0.000000 0.065216
0.608185 0.000000 0.065216
0.719269 0.000000 0.065216
0.824951 0.000000 0.065216
0.926331 0.000000 0.065216
0.000000 0.139618 0.065216
0.214447 0.139618 0.065216
0.361145 0.139618 0.065216
0.489868 0.139618 0.065216
0.608185 0.139618 0.065216
0.719269 0.139618 0.065216
0.824951 0.139618 0.065216
0.926331 0.139618 0.065216
0.000000 0.271851 0.065216
0.214447 0.271851 0.065216
0.361145 0.271851 0.065216
0.489868 0.271851 0.065216
0.608185 0.271851 0.065216
0.719269 0.271851 0.065216
0.824951 0.271851 0.065216
0.926331 0.271851 0.065216
0.000000 0.401489 0.065216
0.214447 0.401489 0.065216
0.361145 0.401489 0.065216
0.489868 0.401489 0.065216
0.608185 0.401489 0.065216
0.719269 0.401489 0.065216
0.824951 0.401489 0.065216
0.926331 0.401489 0.065216
0.000000 0.529449 0.065216
0.214447 0.529449 0.065216
0.361145 0.529449 0.065216
0.489868 0.529449 0.065216
0.608185 0.529449 0.065216
0.719269 0.529449 0.065216
0.824951 0.529449 0.065216
0.926331 0.529449 0.065216
0.000000 0.656128 0.065216
0.214447 0.656128 0.065216
0.361145 0.656128 0.065216
0.489868 0.656128 0.065216
0.608185 0.656128 0.065216
0.719269 0.656128 0.065216
0.824951 0.656128 0.065216
0.926331 0.656128 0.065216
0.000000 0.781860 0.065216
0.214447 0.781860 0.065216
0.361145 0.781860 0.065216
0.489868 0.781860 0.065216
0.608185 0.781860 0.065216
0.719269 0.781860 0.065216
0.824951 0.781860 0.065216
0.926331 0.781860 0.065216
0.000000 0.906769 0.065216
0.214447 0.906769 0.065216
0.361145 0.906769 0.065216
0.489868 0.906769 0.065216
0.608185 0.906769 0.065216
0.719269 0.906769 0.065216
0.824951 0.906769 0.065216
0.926331 0.906769 0.065216
0.000000 0.000000 0.164307
0.214447 0.000000 0.164307
0.361145 0.000000 0.164307
0.489868 0.000000 0.164307
0.608185 0.000000 0.164307
0.719269 0.000000 0.164307
0.824951 0.000000 0.164307
0.926331 0.000000 0.164307
0.000000 0.139618 0.164307
0.214447 0.139618 0.164307
0.361145 0.139618 0.164307
0.489868 0.139618 0.164307
0.608185 0.139618 0.164307
0.719269 0.139618 0.164307
0.824951 0.139618 0.164307
0.926331 0.139618 0.164307
0.000000 0.271851 0.164307
0.214447 0.271851 0.164307
0.361145 0.271851 0.164307
0.489868 0.271851 0.164307
0.608185 0.271851 0.164307
0.719269 0.271851 0.164307
0.824951 0.271851 0.164307
0.926331 0.271851 0.164307
0.000000 0.401489 0.164307
0.214447 0.401489 0.164307
0.361145 0.401489 0.164307
0.489868 0.401489 0.164307
0.608185 0.401489 0.164307
0.719269 0.401489 0.164307
0.824951 0.401489 0.164307
0.926331 0.401489 0.164307
0.000000 0.529449 0.164307
0.214447 0.529449 0.164307
0.361145 0.529449 0.164307
0.489868 0.529449 0.164307
0.608185 0.529449 0.164307
0.719269 0.529449 0.164307
0.824951 0.529449 0.164307
0.926331 0.529449 0.164307
0.000000 0.656128 0.164307
0.214447 0.656128 0.164307
0.361145 0.656128 0.164307
0.489868 0.656128 0.164307
0.608185 0.656128 0.164307
0.719269 0.656128 0.164307
0.824951 0.656128 0.164307
0.926331 0.656128 0.164307
0.000000 0.781860 0.164307
0.214447 0.781860 0.164307
0.361145 0.781860 0.164307
0.489868 0.781860 0.164307
0.608185 0.781860 0.164307
0.719269 0.781860 0.164307
0.824951 0.781860 0.164307
0.926331 0.781860 0.164307
0.000000 0.906769 0.164307
0.214447 0.906769 0.164307
0.361145 0.906769 0.164307
0.489868 0.906769 0.164307
0.608185 0.906769 0.164307
0.719269 0.906769 0.164307
0.824951 0.906769 0.164307
0.926331 0.906769 0.164307
0.000000 0.000000 0.282104
0.214447 0.000000 0.282104
0.361145 0.000000 0.282104
0.489868 0.000000 0.282104
0.608185 0.000000 0.282104
0.719269 0.000000 0.282104
0.824951 0.000000 0.282104
0.926331 0.000000 0.282104
0.000000 0.139618 0.282104
0.214447 0.139618 0.282104
0.361145 0.139618 0.282104
0.489868 0.139618 0.282104
0.608185 0.139618 0.282104
0.719269 0.139618 0.282104
0.824951 0.139618 0.282104
0.926331 0.139618 0.282104
0.000000 0.271851 0.282104
0.214447 0.271851 0.282104
0.361145 0.271851 0.282104
0.489868 0.271851 0.282104
0.608185 0.271851 0.282104
0.719269 0.271851 0.282104
0.824951 0.271851 0.282104
0.926331 0.271851 0.282104
0.000000 0.401489 0.282104
0.214447 0.401489 0.282104
0.361145 0.401489 0.282104
0.489868 0.401489 0.282104
0.608185 0.401489 0.282104
0.719269 0.401489 0.282104
0.824951 0.401489 0.282104
0.926331 0.401489 0.282104
0.000000 0.529449 0.282104
0.214447 0.529449 0.282104
0.361145 0.529449 0.282104
0.489868 0.529449 0.282104
0.608185 0.529449 0.282104
0.719269 0.529449 0.282104
0.824951 0.529449 0.282104
0.926331 0.529449 0.282104
0.000000 0.656128 0.282104
0.214447 0.656128 0.282104
0.361145 0.656128 0.282104
0.489868 0.656128 0.282104
0.608185 0.656128 0.282104
0.719269 0.656128 0.282104
0.824951 0.656128 0.282104
0.926331 0.656128 0.282104
0.000000 0.781860 0.282104
0.214447 0.781860 0.282104
0.361145 0.781860 0.282104
0.489868 0.781860 0.282104
0.608185 0.781860 0.282104
0.719269 0.781860 0.282104
0.824951 0.781860 0.282104
0.926331 0.781860 0.282104
0.000000 0.906769 0.282104
0.214447 0.906769 0.282104
0.361145 0.906769 0.282104
0.489868 0.906769 0.282104
0.608185 0.906769 0.282104
0.719269 0.906769 0.282104
0.824951 0.906769 0.282104
0.926331 0.906769 0.282104
0.000000 0.000000 0.414032
0.214447 0.000000 0.414032
0.361145 0.000000 0.414032
0.489868 0.000000 0.414032
0.608185 0.000000 0.414032
0.719269 0.000000 0.414032
0.824951 0.000000 0.414032
0.926331 0.000000 0.414032
0.000000 0.139618 0.414032
0.214447 0.139618 0.414032
0.361145 0.139618 0.414032
0.489868 0.139618 0.414032
0.608185 0.139618 0.414032
0.719269 0.139618 0.414032
0.824951 0.139618 0.414032
0.926331 0.139618 0.414032
0.000000 0.271851 0.414032
0.214447 0.271851 0.414032
0.361145 0.271851 0.414032
0.489868 0.271851 0.414032
0.608185 0.271851 0.414032
0.719269 0.271851 0.414032
0.824951 0.271851 0.414032
0.926331 0.271851 0.414032
0.000000 0.401489 0.414032
0.214447 0.401489 0.414032
0.361145 0.401489 0.414032
0.489868 0.401489 0.414032
0.608185 0.401489 0.414032
0.719269 0.401489 0.414032
0.824951 0.401489 0.414032
0.926331 0.401489 0.414032
0.000000 0.529449 0.414032
0.214447 0.529449 0.414032
0.361145 0.529449 0.414032
0.489868 0.529449 0.414032
0.608185 0.529449 0.414032
0.719269 0.529449 0.414032
0.824951 0.529449 0.414032
0.926331 0.529449 0.414032
0.000000 0.656128 0.414032
0.214447 0.656128 0.414032
0.361145 0.656128 0.414032
0.489868 0.656128 0.414032
0.608185 0.656128 0.414032
0.719269 0.656128 0.414032
0.824951 0.656128 0.414032
0.926331 0.656128 0.414032
0.000000 0.781860 0.414032
0.214447 0.781860 0.414032
0.361145 0.781860 0.414032
0.489868 0.781860 0.414032
0.608185 0.781860 0.414032
0.719269 0.781860 0.414032
0.824951 0.781860 0.414032
0.926331 0.781860 0.414032
0.000000 0.906769 0.414032
0.214447 0.906769 0.414032
0.361145 0.906769 0.414032
0.489868 0.906769 0.414032
0.608185 0.906769 0.414032
0.719269 0.906769 0.414032
0.824951 0.906769 0.414032
0.926331 0.906769 0.414032
0.000000 0.000000 0.557495
0.214447 0.000000 0.557495
0.361145 0.000000 0.557495
0.489868 0.000000 0.557495
0.608185 0.000000 0.557495
0.719269 0.000000 0.557495
0.824951 0.000000 0.557495
0.926331 0.000000 0.557495
0.000000 0.139618 0.557495
0.214447 0.139618 0.557495
0.361145 0.139618 0.557495
0.489868 0.139618 0.557495
0.608185 0.139618 0.557495
0.719269 0.139618 0.557495
0.824951 0.139618 0.557495
0.926331 0.139618 0.557495
0.000000 0.271851 0.557495
0.214447 0.271851 0.557495
0.361145 0.271851 0.557495
0.489868 0.271851 0.557495
0.608185 0.271851 0.557495
0.719269 0.271851 0.557495
0.824951 0.271851 0.557495
0.926331 0.271851 0.557495
0.000000 0.401489 0.557495
0.214447 0.401489 0.557495
0.361145 0.401489 0.557495
0.489868 0.401489 0.557495
0.608185 0.401489 0.557495
0.719269 0.401489 0.557495
0.824951 0.401489 0.557495
0.926331 0.401489 0.557495
0.000000 0.529449 0.557495
0.214447 0.529449 0.557495
0.361145 0.529449 0.557495
0.489868 0.529449 0.557495
0.608185 0.529449 0.557495
0.719269 0.529449 0.557495
0.824951 0.529449 0.557495
0.926331 0.529449 0.557495
0.000000 0.656128 0.557495
0.214447 0.656128 0.557495
0.361145 0.656128 0.557495
0.489868 0.656128 0.557495
0.608185 0.656128 0.557495
0.719269 0.656128 0.557495
0.824951 0.656128 0.557495
0.926331 0.656128 0.557495
0.000000 0.781860 0.557495
0.214447 0.781860 0.557495
0.361145 0.781860 0.557495
0.489868 0.781860 0.557495
0.608185 0.781860 0.557495
0.719269 0.781860 0.557495
0.824951 0.781860 0.557495
0.926331 0.781860 0.557495
0.000000 0.906769 0.557495
0.214447 0.906769 0.557495
0.361145 0.906769 0.557495
0.489868 0.906769 0.557495
0.608185 0.906769 0.557495
0.719269 0.906769 0.557495
0.824951 0.906769 0.557495
0.926331 0.906769 0.557495
0.000000 0.000000 0.710876
0.214447 0.000000 0.710876
0.361145 0.000000 0.710876
0.489868 0.000000 0.710876
0.608185 0.000000 0.710876
0.719269 0.000000 0.710876
0.824951 0.000000 0.710876
0.926331 0.000000 0.710876
0.000000 0.139618 0.710876
0.214447 0.139618 0.710876
0.361145 0.139618 0.710876
0.489868 0.139618 0.710876
0.608185 0.139618 0.710876
0.719269 0.139618 0.710876
0.824951 0.139618 0.710876
0.926331 0.139618 0.710876
0.000000 0.271851 0.710876
0.214447 0.271851 0.710876
0.361145 0.271851 0.710876
0.489868 0.271851 0.710876
0.608185 0.271851 0.710876
0.719269 0.271851 0.710876
0.824951 0.271851 0.710876
0.926331 0.271851 0.710876
0.000000 0.401489 0.710876
0.214447 0.401489 0.710876
0.361145 0.401489 0.710876
0.489868 0.401489 0.710876
0.608185 0.401489 0.710876
0.719269 0.401489 0.710876
0.824951 0.401489 0.710876
0.926331 0.401489 0.710876
0.000000 0.529449 0.710876
0.214447 0.529449 0.710876
0.361145 0.529449 0.710876
0.489868 0.529449 0.710876
0.608185 0.529449 0.710876
0.719269 0.529449 0.710876
0.824951 0.529449 0.710876
0.926331 0.529449 0.710876
0.000000 0.656128 0.710876
0.214447 0.656128 0.710876
0.361145 0.656128 0.710876
0.489868 0.656128 0.710876
0.608185 0.656128 0.710876
0.719269 0.656128 0.710876
0.824951 0.656128 0.710876
0.926331 0.656128 0.710876
0.000000 0.781860 0.710876
0.214447 0.781860 0.710876
0.361145 0.781860 0.710876
0.489868 0.781860 0.710876
0.608185 0.781860 0.710876
0.719269 0.781860 0.710876
0.824951 0.781860 0.710876
0.926331 0.781860 0.710876
0.000000 0.906769 0.710876
0.214447 0.906769 0.710876
0.361145 0.906769 0.710876
0.489868 0.906769 0.710876
0.608185 0.906769 0.710876
0.719269 0.906769 0.710876
0.824951 0.906769 0.710876
0.926331 0.906769 0.710876
0.000000 0.000000 0.873108
0.214447 0.000000 0.873108
0.361145 0.000000 0.873108
0.489868 0.000000 0.873108
0.608185 0.000000 0.873108
0.719269 0.000000 0.873108
0.824951 0.000000 0.873108
0.926331 0.000000 0.873108
0.000000 0.139618 0.873108
0.214447 0.139618 0.873108
0.361145 0.139618 0.873108
0.489868 0.139618 0.873108
0.608185 0.139618 0.873108
0.719269 0.139618 0.873108
0.824951 0.139618 0.873108
0.926331 0.139618 0.873108
0.000000 0.271851 0.873108
0.214447 0.271851 0.873108
0.361145 0.271851 0.873108
0.489868 0.271851 0.873108
0.608185 0.271851 0.873108
0.719269 0.271851 0.873108
0.824951 0.271851 0.873108
0.926331 0.271851 0.873108
0.000000 0.401489 0.873108
0.214447 0.401489 0.873108
0.361145 0.401489 0.873108
0.489868 0.401489 0.873108
0.608185 0.401489 0.873108
0.719269 0.401489 0.873108
0.824951 0.401489 0.873108
0.926331 0.401489 0.873108
0.000000 0.529449 0.873108
0.214447 0.529449 0.873108
0.361145 0.529449 0.873108
0.489868 0.529449 0.873108
0.608185 0.529449 0.873108
0.719269 0.529449 0.873108
0.824951 0.529449 0.873108
0.926331 0.529449 0.873108
0.000000 0.656128 0.873108
0.214447 0.656128 0.873108
0.361145 0.656128 0.873108
0.489868 0.656128 0.873108
0.608185 0.656128 0.873108
0.719269 0.656128 0.873108
0.824951 0.656128 0.873108
0.926331 0.656128 0.873108
0.000000 0.781860 0.873108
0.214447 0.781860 0.873108
0.361145 0.781860 0.873108
0.489868 0.781860 0.873108
0.608185 0.781860 0.873108
0.719269 0.781860 0.873108
0.824951 0.781860 0.873108
0.926331 0.781860 0.873108
0.000000 0.906769 0.873108
0.214447 0.906769 0.873108
0.361145 0.906769 0.873108
0.489868 0.906769 0.873108
0.608185 0.906769 0.873108
0.719269 0.906769 0.873108
0.824951 0.906769 0.873108
0.926331 0.906769 0.873108
